<?xml version="1.0" encoding="UTF-8"?>
<map version="1.10" tiledversion="1.12.1" orientation="orthogonal" renderorder="right-down" width="50" height="40" tilewidth="16" tileheight="16" infinite="0" nextlayerid="14" nextobjectid="38">
 <tileset firstgid="1" source="../tilesets/puertas.tsx"/>
 <tileset firstgid="5" source="../tilesets/Coasts water.tsx"/>
 <tileset firstgid="480" source="../tilesets/Coasts water 2 pro max.tsx"/>
 <tileset firstgid="1408" source="../tilesets/water animation.tsx"/>
 <tileset firstgid="4294" source="../tilesets/Paredes2.tsx"/>
 <tileset firstgid="4787" source="../tilesets/Suelo.tsx"/>
 <tileset firstgid="4907" source="../tilesets/Objetos.tsx"/>
 <tileset firstgid="5123" source="../tilesets/Other_objects.tsx"/>
 <tileset firstgid="5307" source="../tilesets/Fuegos.tsx"/>
 <tileset firstgid="5505" source="../tilesets/supplies_objects.tsx"/>
 <tileset firstgid="6060" source="../tilesets/player.tsx"/>
 <tileset firstgid="6061" source="../tilesets/amongus.tsx"/>
 <tileset firstgid="6062" source="../tilesets/goomba.tsx"/>
 <tileset firstgid="6063" source="../tilesets/skeleton.tsx"/>
 <tileset firstgid="6065" source="../tilesets/corazon.tsx"/>
 <tileset firstgid="6066" source="../tilesets/azeris.tsx"/>
 <group id="8" name="Room">
  <layer id="1" name="Suelo" width="50" height="40">
   <data encoding="csv">
4432,4432,4432,4432,4432,4432,4432,4432,4432,4432,4432,4432,4432,4432,4432,4432,4432,4432,4432,4432,4432,4432,4432,4432,4432,4432,4432,4432,4432,4432,4432,4432,4432,4432,4432,4432,4432,4432,4432,4432,4432,4432,4432,4432,4432,4432,4432,4432,4432,4432,
4432,4432,4432,4432,4432,4432,4432,4432,4432,4432,4432,4432,4432,4432,4432,4432,4432,4432,4432,4432,4432,4432,4432,4432,4432,4432,4432,4432,4432,4432,4432,4432,4432,4432,4432,4432,4432,4432,4432,4432,4432,4432,4432,4432,4432,4432,4432,4432,4432,4432,
4432,4432,4432,4432,4432,4432,4432,4432,4432,4432,4432,4432,4432,4432,4432,4432,4432,4432,4432,4432,4432,4432,4432,4432,4432,4432,4432,4432,4432,4432,4432,4432,4432,4432,4432,4432,4432,4432,4432,4432,4432,4432,4432,4432,4432,4432,4432,4432,4432,4432,
4432,4432,4432,4432,4432,4432,4432,4432,4432,4432,4432,4432,4432,4432,4432,4432,4432,4432,4432,4432,4432,4432,4432,4432,4432,4432,4432,4432,4432,4432,4432,4432,4432,4432,4432,4432,4432,4432,4432,4432,4432,4432,4432,4432,4432,4432,4432,4432,4432,4432,
4432,4432,4432,4432,4432,4432,4432,4432,4432,4432,4432,4432,4432,4432,4432,4432,4432,4432,4432,4432,4432,4432,4432,4432,4432,4432,4432,4432,4432,4432,4432,4432,4432,4432,4432,4432,4432,4432,4432,4432,4432,4432,4432,4432,4432,4432,4432,4432,4432,4432,
4432,4432,4432,4432,4432,4432,4432,4432,4432,4432,4432,4432,4432,4432,4432,1361,1361,1361,1361,4432,4432,4432,4432,4432,4432,4432,4432,4432,4432,4432,4432,1361,1361,1361,1361,4432,4432,4432,4432,4432,4432,4432,4432,4432,4432,4432,4432,4432,4432,4432,
4432,4432,4432,4432,4432,4432,4432,4432,4432,4432,4432,4432,4432,4432,4432,1361,1361,1361,1361,4432,4432,4432,4432,4432,4432,4432,4432,4432,4432,4432,4432,1361,1361,1361,1361,4432,4432,4432,4432,4432,4432,4432,4432,4432,4432,4432,4432,4432,4432,4432,
4432,4432,4432,4432,4432,4432,4432,4432,4432,4432,4432,4432,4432,4432,4432,1361,1361,1361,1361,4432,4432,4432,4432,4432,4432,4432,4432,4432,4432,4432,4432,1361,1361,1361,1361,4432,4432,4432,4432,4432,4432,4432,4432,4432,4432,4432,4432,4432,4432,4432,
4432,4432,4432,4432,4432,4432,4432,4432,4432,4432,4432,4432,4432,4432,4432,1361,1361,1361,1361,4432,4432,4432,4432,4432,4432,4432,4432,4432,4432,4432,4432,1361,1361,1361,1361,4432,4432,4432,4432,4432,4432,4432,4432,4432,4432,4432,4432,4432,4432,4432,
4432,4432,4432,4432,4432,4432,4432,4432,4432,4432,4432,4432,4432,4432,4432,1361,1361,1361,1361,4432,4432,4432,4432,4432,4432,4432,4432,4432,4432,4432,4432,1361,1361,1361,1361,4432,4432,4432,4432,4432,4432,4432,4432,4432,4432,4432,4432,4432,4432,4432,
4432,4432,4432,4432,4432,4432,4432,4432,4432,4432,4432,4432,4432,4432,4432,1361,1361,1361,1361,4432,4432,4432,4432,4432,4432,4432,4432,4432,4432,4432,4432,1361,1361,1361,1361,4432,4432,4432,4432,4432,4432,4432,4432,4432,4432,4432,4432,4432,4432,4432,
4432,4432,4432,4432,4432,4432,4432,4432,4432,4432,4432,4432,4432,4432,4432,1361,1361,1361,1361,1361,1361,1361,1361,685,685,685,685,1361,1361,1361,1361,1361,1361,1361,1361,4432,4432,4432,4432,4432,4432,4432,4432,4432,4432,4432,4432,4432,4432,4432,
4432,4432,4432,4432,4432,4432,4432,4432,4432,4432,4432,4432,4432,4432,4432,1361,1361,1361,1361,1361,1361,1361,1361,685,685,685,685,1361,1361,1361,1361,1361,1361,1361,1361,4432,4432,4432,4432,4432,4432,4432,4432,4432,4432,4432,4432,4432,4432,4432,
4432,4432,4432,4432,4432,4432,4432,4432,4432,4432,4432,4432,4432,4432,4432,1361,1361,1361,1361,1361,1361,1361,1361,685,685,685,685,1361,1361,1361,1361,1361,1361,1361,1361,4432,4432,4432,4432,4432,4432,4432,4432,4432,4432,4432,4432,4432,4432,4432,
4432,4432,4432,4432,4432,4432,4432,4432,4432,4432,4432,4432,4432,4432,4432,1361,1361,1361,1361,1361,1361,1361,1361,685,685,685,685,1361,1361,1361,1361,1361,1361,1361,1361,4432,4432,4432,4432,4432,4432,4432,4432,4432,4432,4432,4432,4432,4432,4432,
4432,4432,4432,4432,4432,4432,4432,4432,4432,4432,4432,4432,4432,4432,4432,1361,1361,1361,1361,1361,1361,1361,1361,4432,4432,4432,4432,1361,1361,1361,1361,1361,1361,1361,1361,4432,4432,4432,4432,4432,4432,4432,4432,4432,4432,4432,4432,4432,4432,4432,
4432,4432,4432,4432,4432,4432,4432,4432,4432,4432,4432,4432,4432,4432,4432,1361,1361,1361,1361,4432,4432,4432,4432,4432,4432,4432,4432,4432,4432,4432,4432,1361,1361,1361,1361,4432,4432,4432,4432,4432,4432,4432,4432,4432,4432,4432,4432,4432,4432,4432,
4432,4432,4432,4432,4432,4432,4432,4432,4432,4432,4432,4432,4432,4432,4432,1361,1361,1361,1361,4432,4432,4432,4432,4432,4432,4432,4432,4432,4432,4432,4432,1361,1361,1361,1361,4432,4432,4432,4432,4432,4432,4432,4432,4432,4432,4432,4432,4432,4432,4432,
4432,4432,4432,4432,4432,4432,4432,4432,4432,4432,4432,4432,4432,4432,4432,1361,1361,1361,1361,4432,4432,4432,4432,4432,4432,4432,4432,4432,4432,4432,746,1361,1361,1361,1361,748,4432,4432,4432,4432,4432,4432,4432,4432,4432,4432,4432,4432,4432,4432,
4432,4432,4432,4432,4432,4432,4432,4432,4432,4432,4432,4432,4432,4432,4432,1361,1361,1361,1361,4432,4432,4432,4432,4432,4432,4432,4432,4432,4432,4432,4432,685,685,685,685,4432,4432,4432,4432,4432,4432,4432,4432,4432,4432,4432,4432,4432,4432,4432,
4432,4432,4432,4432,4432,4432,4432,4432,4432,4432,4432,4432,4432,4432,4432,1361,1361,1361,1361,4432,4432,4432,4432,4432,4432,4432,4432,4432,4432,4432,4432,685,685,685,685,4432,4432,4432,4432,4432,4432,4432,4432,4432,4432,4432,4432,4432,4432,4432,
4432,4432,4432,4432,4432,4432,4432,4432,4432,4432,4432,4432,4432,4432,4432,1361,1361,1361,1361,4432,4432,4432,4432,4432,4432,4432,4432,4432,4432,4432,4432,685,685,685,685,4432,4432,4432,4432,4432,4432,4432,4432,4432,4432,4432,4432,4432,4432,4432,
4432,4432,4432,4432,4432,4432,4432,4432,4432,4432,4432,4432,4432,4432,4432,1361,1361,1361,1361,4432,4432,4432,4432,4432,4432,4432,4432,4432,4432,4432,630,1361,1361,1361,1361,632,4432,4432,4432,4432,4432,4432,4432,4432,4432,4432,4432,4432,4432,4432,
4432,4432,4432,4432,4432,4432,4432,4432,4432,4432,4432,4432,4432,4432,4432,1361,1361,1361,1361,4432,4432,4432,4432,4432,4432,4432,4432,4432,4432,4432,4432,1361,1361,1361,1361,4432,4432,4432,4432,4432,4432,4432,4432,4432,4432,4432,4432,4432,4432,4432,
4432,4432,4432,4432,4432,4432,4432,4432,4432,4432,4432,4432,4432,4432,4432,1361,1361,1361,1361,4432,4432,4432,4432,4432,4432,4432,1265,1265,1265,1265,4432,1361,1361,1361,1361,4432,4432,4432,4432,4432,4432,4432,4432,4432,4432,4432,4432,4432,4432,4432,
4432,4432,4432,4432,4432,4432,4432,4432,4432,4432,4432,4432,4432,4432,4432,1361,1361,1361,1361,1361,1361,1361,1361,1265,1265,1265,1265,1361,1361,1361,1361,1361,1361,1361,1361,4432,4432,4432,4432,4432,4432,4432,4432,4432,4432,4432,4432,4432,4432,4432,
4432,4432,4432,4432,4432,4432,4432,4432,4432,4432,4432,4432,4432,4432,4432,1361,1361,1361,1361,1361,1361,1361,1361,1265,1265,1265,1265,1361,1361,1361,1361,1361,1361,1361,1361,4432,4432,4432,4432,4432,4432,4432,4432,4432,4432,4432,4432,4432,4432,4432,
4432,4432,4432,4432,4432,4432,4432,4432,4432,4432,4432,4432,4432,4432,4432,1361,1361,1361,1361,1361,1361,1361,1361,1265,1265,1265,1265,1361,1361,1361,1361,1361,1361,1361,1361,4432,4432,4432,4432,4432,4432,4432,4432,4432,4432,4432,4432,4432,4432,4432,
4432,4432,4432,4432,4432,4432,4432,4432,4432,4432,4432,4432,4432,4432,4432,1361,1361,1361,1361,1361,1361,1361,1361,1265,1265,1265,1265,1361,1361,1361,1361,1361,1361,1361,1361,4432,4432,4432,4432,4432,4432,4432,4432,4432,4432,4432,4432,4432,4432,4432,
4432,4432,4432,4432,4432,4432,4432,4432,4432,4432,4432,4432,4432,4432,4432,1361,1361,1361,1361,1361,1361,1361,1361,4432,4432,4432,4432,1361,1361,1361,1361,1361,1361,1361,1361,4432,4432,4432,4432,4432,4432,4432,4432,4432,4432,4432,4432,4432,4432,4432,
4432,4432,4432,4432,4432,4432,4432,4432,4432,4432,4432,4432,4432,4432,4432,1361,1361,1361,1361,4432,4432,4432,4432,4432,4432,4432,4432,4432,4432,4432,4432,1361,1361,1361,1361,4432,4432,4432,4432,4432,4432,4432,4432,4432,4432,4432,4432,4432,4432,4432,
4432,4432,4432,4432,4432,4432,4432,4432,4432,4432,4432,4432,4432,4432,4432,1361,1361,1361,1361,4432,4432,4432,4432,4432,4432,4432,4432,4432,4432,4432,4432,1361,1361,1361,1361,4432,4432,4432,4432,4432,4432,4432,4432,4432,4432,4432,4432,4432,4432,4432,
4432,4432,4432,4432,4432,4432,4432,4432,4432,4432,4432,4432,4432,4432,4432,685,685,685,685,4432,4432,4432,4432,4432,4432,4432,4432,4432,4432,4432,4432,1361,1361,1361,1361,4432,4432,4432,4432,4432,4432,4432,4432,4432,4432,4432,4432,4432,4432,4432,
4432,4432,4432,4432,4432,4432,4432,4432,4432,4432,4432,4432,4432,4432,4432,685,685,685,685,4432,4432,4432,4432,4432,4432,4432,4432,4432,4432,4432,4432,1361,1361,1361,1361,4432,4432,4432,4432,4432,4432,4432,4432,4432,4432,4432,4432,4432,4432,4432,
4432,4432,4432,4432,4432,4432,4432,4432,4432,4432,4432,4432,4432,4432,4432,685,685,685,685,4432,4432,4432,4432,4432,4432,4432,4432,4432,4432,4432,4432,1361,1361,1361,1361,4432,4432,4432,4432,4432,4432,4432,4432,4432,4432,4432,4432,4432,4432,4432,
4432,4432,4432,4432,4432,4432,4432,4432,4432,4432,4432,4432,4432,4432,4432,1361,1361,1361,1361,4432,4432,4432,4432,4432,4432,4432,4432,4432,4432,4432,4432,1361,1361,1361,1361,4432,4432,4432,4432,4432,4432,4432,4432,4432,4432,4432,4432,4432,4432,4432,
4432,4432,4432,4432,4432,4432,4432,4432,4432,4432,4432,4432,4432,4432,4432,1361,1361,1361,1361,4432,4432,4432,4432,4432,4432,4432,4432,4432,4432,4432,4432,1361,1361,1361,1361,4432,4432,4432,4432,4432,4432,4432,4432,4432,4432,4432,4432,4432,4432,4432,
4432,4432,4432,4432,4432,4432,4432,4432,4432,4432,4432,4432,4432,4432,4432,1361,1361,1361,1361,4432,4432,4432,4432,4432,4432,4432,4432,4432,4432,4432,4432,1361,1361,1361,1361,4432,4432,4432,4432,4432,4432,4432,4432,4432,4432,4432,4432,4432,4432,4432,
4432,4432,4432,4432,4432,4432,4432,4432,4432,4432,4432,4432,4432,4432,4432,4432,4432,4432,4432,4432,4432,4432,4432,4432,4432,4432,4432,4432,4432,4432,4432,4432,4432,4432,4432,4432,4432,4432,4432,4432,4432,4432,4432,4432,4432,4432,4432,4432,4432,4432,
4432,4432,4432,4432,4432,4432,4432,4432,4432,4432,4432,4432,4432,4432,4432,4432,4432,4432,4432,4432,4432,4432,4432,4432,4432,4432,4432,4432,4432,4432,4432,4432,4432,4432,4432,4432,4432,4432,4432,4432,4432,4432,4432,4432,4432,4432,4432,4432,4432,4432
</data>
  </layer>
  <layer id="11" name="Retoques Suelo" width="50" height="40">
   <data encoding="csv">
0,0,0,0,0,0,0,0,0,0,0,0,0,0,0,0,0,0,0,0,0,0,0,0,0,0,0,0,0,0,0,0,0,0,0,0,0,0,0,0,0,0,0,0,0,0,0,0,0,0,
0,0,0,0,0,0,0,0,0,0,0,0,0,0,0,0,0,0,0,0,0,0,0,0,0,0,0,0,0,0,0,0,0,0,0,0,0,0,0,0,0,0,0,0,0,0,0,0,0,0,
0,0,0,0,0,0,0,0,0,0,0,0,0,0,0,0,0,0,0,0,0,0,0,0,0,0,0,0,0,0,0,0,0,0,0,0,0,0,0,0,0,0,0,0,0,0,0,0,0,0,
0,0,0,0,0,0,0,0,0,0,0,0,0,0,0,0,0,0,0,0,0,0,0,0,0,0,0,0,0,0,0,0,0,0,0,0,0,0,0,0,0,0,0,0,0,0,0,0,0,0,
0,0,0,0,4543,4544,4544,4544,4544,4544,4544,4544,4545,0,0,0,0,0,0,0,0,0,4544,0,0,0,0,0,0,0,0,0,0,0,0,0,0,0,0,0,0,0,0,0,0,0,0,0,0,0,
0,0,0,0,4543,4544,4544,4544,4544,4544,4544,4544,4545,0,0,0,0,0,0,0,0,0,4543,4544,4544,4544,4544,4545,0,0,0,0,0,0,0,0,0,0,0,0,0,0,0,0,0,0,0,0,0,0,
0,0,0,0,4543,4544,4544,4544,4544,4544,4544,4544,4545,0,0,0,0,0,0,0,0,0,4543,4544,4544,4544,4544,4545,0,0,0,0,0,0,0,0,0,1610618730,0,0,0,3221231520,0,0,0,0,0,0,0,0,
0,0,0,0,4543,4544,4544,4544,4544,4544,4544,4544,4545,0,0,0,0,0,0,0,0,0,4543,4544,4544,4544,4544,4545,0,0,0,0,0,0,0,0,0,0,0,2684360549,0,3221231505,0,0,0,0,0,0,0,0,
0,0,0,0,4560,4561,4561,4561,4561,4561,4561,4561,4562,0,0,0,0,0,0,0,0,0,4543,4544,4544,4544,4544,4545,0,0,0,0,0,0,0,0,0,0,0,0,0,0,0,0,0,0,0,0,0,0,
0,0,0,0,0,0,0,0,0,0,0,0,0,0,0,0,0,0,0,0,0,0,4543,4544,4544,4544,4544,4545,0,0,0,0,0,0,0,0,0,0,0,0,0,0,0,0,0,0,0,0,0,0,
0,0,0,0,0,0,0,0,0,0,0,0,0,0,0,0,0,0,0,0,0,0,4560,4530,4544,4544,4529,4562,0,0,0,0,0,0,0,0,0,0,0,0,0,0,0,0,0,0,0,0,0,0,
0,0,0,0,0,0,0,0,0,0,0,0,0,0,0,0,0,0,0,0,0,0,0,4543,4544,4544,4545,0,0,0,0,0,0,0,0,0,0,0,0,0,0,0,0,0,0,0,0,0,0,0,
0,0,0,0,0,0,0,0,0,0,0,0,0,0,0,0,0,0,0,0,0,0,0,4543,4544,4544,4545,0,0,0,0,0,0,0,0,0,0,0,0,0,0,0,0,0,0,0,0,0,0,0,
0,0,0,0,0,0,0,0,0,0,0,0,0,0,0,0,0,0,0,0,0,0,0,4543,4544,4544,4545,0,0,0,0,0,0,0,0,0,0,0,0,0,0,0,0,0,0,0,0,0,0,0,
0,0,0,0,0,0,0,0,0,0,0,0,0,0,0,0,0,0,0,0,0,0,0,4543,4544,4544,4545,0,0,0,0,0,0,0,0,0,0,0,0,0,0,0,0,0,0,0,0,0,0,0,
0,0,0,0,0,0,0,0,0,0,0,0,0,4540,0,0,0,0,0,0,0,0,0,4543,4544,4544,4545,0,0,0,0,0,0,0,0,0,0,0,0,0,0,0,0,0,0,0,0,0,0,0,
0,0,0,0,0,0,0,0,0,0,0,0,0,0,0,0,0,0,0,0,0,0,0,4543,4544,4544,4545,0,0,0,0,0,0,0,0,0,0,0,0,0,0,0,0,0,0,0,0,0,0,0,
0,0,0,0,0,0,0,0,0,0,0,0,0,4522,1450,1451,1452,1453,1454,1455,0,4522,0,4543,4544,4544,4546,4528,0,0,0,0,0,0,0,0,0,0,0,0,0,0,0,0,0,0,0,0,0,0,
0,0,0,0,0,0,0,0,0,0,0,0,4522,0,1487,1488,1489,1490,1491,1492,0,0,0,4543,4544,4544,4544,4546,4528,0,0,0,0,0,0,0,0,0,0,0,0,0,0,0,0,0,0,0,0,0,
0,0,0,0,0,0,0,0,0,0,0,0,0,0,1524,1525,1526,1527,1528,1529,0,0,0,4543,4544,4544,4542,4544,4893,4881,4879,4857,0,4851,4879,4882,4881,4879,4880,4881,4881,4880,4857,0,0,0,0,0,0,0,
0,0,0,0,0,0,0,0,0,0,0,0,0,0,1450,1451,1452,1453,1454,1455,0,0,4523,4543,4544,4544,4544,4544,4544,4525,4887,4871,0,4862,4544,4542,4524,4544,4885,4875,4878,4878,4872,0,0,0,0,0,0,0,
0,0,0,0,0,0,0,0,0,0,0,0,4539,0,1487,1488,1489,1490,1491,1492,4523,0,0,4543,4544,4544,4544,4524,4889,4878,4871,0,0,4867,4877,4877,4876,4877,4874,0,0,0,0,0,0,0,0,0,0,0,
0,0,0,0,0,0,0,0,0,0,0,0,0,0,1524,1525,1526,1527,1528,1529,0,4540,0,4543,4544,4544,4544,4529,4562,0,0,0,0,0,0,0,0,0,0,0,0,0,0,0,0,0,0,0,0,0,
0,0,0,0,0,4853,4858,0,0,0,0,0,0,4539,0,1631,1632,1633,1634,1635,0,0,0,4543,4544,4544,4529,4562,0,0,0,0,0,0,0,0,0,0,0,0,0,0,0,0,0,0,0,0,0,0,
0,0,0,0,0,4867,4873,0,0,0,0,0,0,0,0,0,0,0,0,0,4522,0,0,4543,4544,4544,4545,0,0,0,0,0,0,0,0,0,0,0,0,0,0,0,0,0,0,0,0,0,0,0,
0,0,0,0,0,0,0,0,0,0,0,0,0,0,0,0,0,0,0,0,0,0,0,4543,4544,4544,4545,0,0,0,0,0,0,0,0,0,0,0,0,0,0,0,0,0,0,0,0,0,0,0,
0,0,0,0,0,0,0,0,0,0,0,0,0,4523,0,0,0,0,0,0,0,0,0,4543,4544,4544,4545,0,0,0,0,0,0,0,0,0,0,0,0,0,0,0,0,0,0,0,0,0,0,0,
0,0,0,0,0,4851,4880,4858,0,0,0,0,0,0,0,0,0,0,0,0,0,0,0,4543,4544,4544,4545,0,0,0,0,0,0,0,0,0,0,0,0,0,0,0,0,0,0,0,0,0,0,0,
0,0,0,0,0,4867,4878,4874,0,0,4851,4856,0,0,0,0,0,0,0,0,0,0,0,4543,4544,4544,4545,0,0,0,0,0,0,0,0,0,0,0,0,0,0,0,0,0,0,0,0,0,0,0,
0,0,0,0,0,0,0,0,0,4852,4547,4863,0,0,0,0,0,0,0,0,0,0,0,4543,4544,4544,4545,0,0,0,0,0,0,0,0,0,0,0,0,0,0,0,0,0,0,0,0,0,0,0,
0,0,0,0,0,0,0,0,0,4867,4878,4871,0,0,0,0,0,0,0,0,0,0,0,4543,4544,4544,4545,0,0,0,0,0,0,0,0,0,0,0,0,0,0,0,0,0,0,0,0,0,0,0,
0,0,0,0,0,0,0,0,0,0,0,0,4851,4855,0,0,0,0,0,0,0,0,4526,4547,4544,4544,4546,4528,0,0,0,0,0,0,0,0,0,0,0,0,0,0,0,0,0,0,0,0,0,0,
0,0,0,0,0,0,0,0,0,0,0,0,4861,4893,4527,4527,4527,4527,4527,4527,4527,4527,4547,4544,4544,4544,4544,4545,0,0,0,0,0,0,0,0,0,0,0,0,0,0,0,0,0,0,0,0,0,0,
0,0,0,0,0,0,0,0,0,0,0,0,4867,4886,4541,4544,4544,4542,4544,4544,4525,4544,4544,4544,4544,4544,4544,4545,0,0,0,0,0,0,0,0,0,0,0,0,0,0,0,0,0,0,0,0,0,0,
0,0,0,0,0,0,0,0,0,0,0,0,0,4869,4561,4561,4561,4561,4561,4561,4561,4561,4530,4544,4544,4544,4544,4545,0,0,0,0,0,0,0,0,0,0,0,0,0,0,0,0,0,0,0,0,0,0,
0,0,0,0,0,0,0,0,0,0,0,0,0,0,0,0,0,0,0,0,0,0,4543,4544,4544,4544,4544,4545,0,0,0,0,0,0,0,0,0,0,0,0,0,0,0,0,0,0,0,0,0,0,
0,0,0,0,0,0,0,0,0,0,0,0,0,0,0,0,0,0,0,0,0,0,4543,4544,4544,4544,4544,4545,0,0,0,0,0,0,0,0,0,0,0,0,0,0,0,0,0,0,0,0,0,0,
0,0,0,0,0,0,0,0,0,0,0,0,0,0,0,0,0,0,0,0,0,0,4543,4544,4544,4544,4544,4545,0,0,0,0,0,0,0,0,0,0,0,0,0,0,0,0,0,0,0,0,0,0,
0,0,0,0,0,0,0,0,0,0,0,0,0,0,0,0,0,0,0,0,0,0,0,0,0,0,0,0,0,0,0,0,0,0,0,0,0,0,0,0,0,0,0,0,0,0,0,0,0,0,
0,0,0,0,0,0,0,0,0,0,0,0,0,0,0,0,0,0,0,0,0,0,0,0,0,0,0,0,0,0,0,0,0,0,0,0,0,0,0,0,0,0,0,0,0,0,0,0,0,0
</data>
  </layer>
  <layer id="5" name="Retoques agua" width="50" height="40">
   <data encoding="csv">
0,0,0,0,0,0,0,0,0,0,0,0,0,0,0,0,0,0,0,0,0,0,0,0,0,0,0,0,0,0,0,0,0,0,0,0,0,0,0,0,0,0,0,0,0,0,0,0,0,0,
0,0,0,0,0,0,0,0,0,0,0,0,0,0,0,0,0,0,0,0,0,0,0,0,0,0,0,0,0,0,0,0,0,0,0,0,0,0,0,0,0,0,0,0,0,0,0,0,0,0,
0,0,0,0,0,0,0,0,0,0,0,0,0,0,0,0,0,0,0,0,0,0,0,0,0,0,0,0,0,0,0,0,0,0,0,0,0,0,0,0,0,0,0,0,0,0,0,0,0,0,
0,0,0,0,0,0,0,0,0,0,0,0,0,0,0,0,0,0,0,0,0,0,0,0,0,0,0,0,0,0,0,0,0,0,0,0,0,0,0,0,0,0,0,0,0,0,0,0,0,0,
0,0,0,0,0,0,0,0,0,0,0,0,0,0,4418,4406,4406,4406,4406,4407,0,0,0,0,0,0,0,0,0,0,4418,4406,4406,4406,4406,4407,0,0,0,0,0,0,0,0,0,0,0,0,0,0,
0,0,0,0,0,0,0,0,0,0,0,0,0,0,1361,0,0,0,0,1361,0,0,0,0,0,0,0,0,0,0,1361,0,0,0,0,1361,0,0,0,0,0,0,0,0,0,0,0,0,0,0,
0,0,0,0,0,0,0,0,0,0,0,0,0,0,1361,0,0,0,0,1361,0,0,0,0,0,0,0,0,0,0,1361,0,0,0,0,1361,0,0,0,0,0,0,0,0,0,0,0,0,0,0,
0,0,0,0,0,0,0,0,0,0,0,0,0,0,1361,0,0,0,0,1361,0,0,0,0,0,0,0,0,0,0,1361,0,0,0,0,1361,0,0,0,0,0,0,0,0,0,0,0,0,0,0,
0,0,0,0,0,0,0,0,0,0,0,0,0,0,1361,0,0,0,0,1361,0,0,0,0,0,0,0,0,0,0,1361,0,0,0,0,1361,0,0,0,0,0,0,0,0,0,0,0,0,0,0,
0,0,0,0,0,0,0,0,0,0,0,0,0,0,1361,0,0,0,0,1361,0,0,0,0,0,0,0,0,0,0,1361,0,0,0,0,1361,0,0,0,0,0,0,0,0,0,0,0,0,0,0,
0,0,0,0,0,0,0,0,0,0,0,0,0,0,1361,0,0,0,0,1361,0,0,0,0,0,0,0,0,0,0,1361,0,0,0,0,1361,0,0,0,0,0,0,0,0,0,0,0,0,0,0,
0,0,0,0,0,0,0,0,0,0,0,0,0,0,1361,0,0,0,0,0,0,0,0,0,0,0,0,0,0,0,0,0,0,0,0,1361,0,0,0,0,0,0,0,0,0,0,0,0,0,0,
0,0,0,0,0,0,0,0,0,0,0,0,0,0,1361,0,0,0,0,0,0,0,0,0,0,0,0,0,0,0,0,0,0,0,0,1361,0,0,0,0,0,0,0,0,0,0,0,0,0,0,
0,0,0,0,0,0,0,0,0,0,0,0,0,0,1361,0,0,0,0,0,0,0,0,0,0,0,0,0,0,0,0,0,0,0,0,1361,0,0,0,0,0,0,0,0,0,0,0,0,0,0,
0,0,0,0,0,0,0,0,0,0,0,0,0,0,1361,0,0,0,0,0,0,0,0,0,0,0,0,0,0,0,0,0,0,0,0,1361,0,0,0,0,0,0,0,0,0,0,0,0,0,0,
0,0,0,0,0,0,0,0,0,0,0,0,0,0,1361,0,0,0,0,0,0,0,0,0,0,0,0,0,0,0,0,0,0,0,0,1361,0,0,0,0,0,0,0,0,0,0,0,0,0,0,
0,0,0,0,0,0,0,0,0,0,0,0,0,0,1361,0,0,0,0,1361,0,0,0,0,0,0,0,0,0,0,1361,0,0,0,0,1361,0,0,0,0,0,0,0,0,0,0,0,0,0,0,
0,0,0,0,0,0,0,0,0,0,0,0,0,0,1361,0,0,0,0,1361,0,0,0,0,0,0,0,0,0,0,1361,0,0,0,0,1361,0,0,0,0,0,0,0,0,0,0,0,0,0,0,
0,0,0,0,0,0,0,0,0,0,0,0,0,0,1361,0,0,0,0,1361,0,0,0,0,0,0,0,0,0,0,0,0,0,0,0,0,0,0,0,0,0,0,0,0,0,0,0,0,0,0,
0,0,0,0,0,0,0,0,0,0,0,0,0,0,1361,0,0,0,0,1361,0,0,0,0,0,0,0,0,0,0,0,0,0,0,0,0,0,0,0,0,0,0,0,0,0,0,0,0,0,0,
0,0,0,0,0,0,0,0,0,0,0,0,0,0,1361,0,0,0,0,1361,0,0,0,0,0,0,0,0,0,0,0,0,0,0,0,0,0,0,0,0,0,0,0,0,0,0,0,0,0,0,
0,0,0,0,0,0,0,0,0,0,0,0,0,0,1361,0,0,0,0,1361,0,0,0,0,0,0,0,0,0,0,0,0,0,0,0,0,0,0,0,0,0,0,0,0,0,0,0,0,0,0,
0,0,0,0,0,0,0,0,0,0,0,0,0,0,1361,0,0,0,0,1361,0,0,0,0,0,0,0,0,0,0,0,0,0,0,0,0,0,0,0,0,0,0,0,0,0,0,0,0,0,0,
0,0,0,0,0,0,0,0,0,0,0,0,0,0,1361,0,0,0,0,1361,0,0,0,0,0,0,0,0,0,0,1361,0,0,0,0,1361,0,0,0,0,0,0,0,0,0,0,0,0,0,0,
0,0,0,0,0,0,0,0,0,0,0,0,0,0,1361,0,0,0,0,1361,0,0,0,0,0,0,0,0,0,0,1361,0,0,0,0,1361,0,0,0,0,0,0,0,0,0,0,0,0,0,0,
0,0,0,0,0,0,0,0,0,0,0,0,0,0,1361,0,0,0,0,0,0,0,0,0,0,0,0,0,0,0,0,0,0,0,0,1361,0,0,0,0,0,0,0,0,0,0,0,0,0,0,
0,0,0,0,0,0,0,0,0,0,0,0,0,0,1361,0,0,0,0,0,0,0,0,0,0,0,0,0,0,0,0,0,0,0,0,1361,0,0,0,0,0,0,0,0,0,0,0,0,0,0,
0,0,0,0,0,0,0,0,0,0,0,0,0,0,1361,0,0,0,0,0,0,0,0,0,0,0,0,0,0,0,0,0,0,0,0,1361,0,0,0,0,0,0,0,0,0,0,0,0,0,0,
0,0,0,0,0,0,0,0,0,0,0,0,0,0,1361,0,0,0,0,0,0,0,0,0,0,0,0,0,0,0,0,0,0,0,0,1361,0,0,0,0,0,0,0,0,0,0,0,0,0,0,
0,0,0,0,0,0,0,0,0,0,0,0,0,0,1361,0,0,0,0,0,0,0,0,0,0,0,0,0,0,0,0,0,0,0,0,1361,0,0,0,0,0,0,0,0,0,0,0,0,0,0,
0,0,0,0,0,0,0,0,0,0,0,0,0,0,1361,0,0,0,0,1361,0,0,0,0,0,0,0,0,0,0,1361,0,0,0,0,1361,0,0,0,0,0,0,0,0,0,0,0,0,0,0,
0,0,0,0,0,0,0,0,0,0,0,0,0,0,1361,0,0,0,0,1361,0,0,0,0,0,0,0,0,0,0,1361,0,0,0,0,1361,0,0,0,0,0,0,0,0,0,0,0,0,0,0,
0,0,0,0,0,0,0,0,0,0,0,0,0,0,0,0,0,0,0,0,0,0,0,0,0,0,0,0,0,0,1361,0,0,0,0,1361,0,0,0,0,0,0,0,0,0,0,0,0,0,0,
0,0,0,0,0,0,0,0,0,0,0,0,0,0,0,0,0,0,0,0,0,0,0,0,0,0,0,0,0,0,1361,0,0,0,0,1361,0,0,0,0,0,0,0,0,0,0,0,0,0,0,
0,0,0,0,0,0,0,0,0,0,0,0,0,0,0,0,0,0,0,0,0,0,0,0,0,0,0,0,0,0,1361,0,0,0,0,1361,0,0,0,0,0,0,0,0,0,0,0,0,0,0,
0,0,0,0,0,0,0,0,0,0,0,0,0,0,1361,0,0,0,0,1361,0,0,0,0,0,0,0,0,0,0,1361,0,0,0,0,1361,0,0,0,0,0,0,0,0,0,0,0,0,0,0,
0,0,0,0,0,0,0,0,0,0,0,0,0,0,1361,0,0,0,0,1361,0,0,0,0,0,0,0,0,0,0,1361,0,0,0,0,1361,0,0,0,0,0,0,0,0,0,0,0,0,0,0,
0,0,0,0,0,0,0,0,0,0,0,0,0,0,1361,0,0,0,0,1361,0,0,0,0,0,0,0,0,0,0,1361,0,0,0,0,1361,0,0,0,0,0,0,0,0,0,0,0,0,0,0,
0,0,0,0,0,0,0,0,0,0,0,0,0,0,0,0,0,0,0,0,0,0,0,0,0,0,0,0,0,0,0,0,0,0,0,0,0,0,0,0,0,0,0,0,0,0,0,0,0,0,
0,0,0,0,0,0,0,0,0,0,0,0,0,0,0,0,0,0,0,0,0,0,0,0,0,0,0,0,0,0,0,0,0,0,0,0,0,0,0,0,0,0,0,0,0,0,0,0,0,0
</data>
  </layer>
  <layer id="13" name="Animaciones Agua" width="50" height="40">
   <data encoding="csv">
0,0,0,0,0,0,0,0,0,0,0,0,0,0,0,0,0,0,0,0,0,0,0,0,0,0,0,0,0,0,0,0,0,0,0,0,0,0,0,0,0,0,0,0,0,0,0,0,0,0,
0,0,0,0,0,0,0,0,0,0,0,0,0,0,0,0,0,0,0,0,0,0,0,0,0,0,0,0,0,0,0,0,0,0,0,0,0,0,0,0,0,0,0,0,0,0,0,0,0,0,
0,0,0,0,0,0,0,0,0,0,0,0,0,0,0,0,0,0,0,0,0,0,0,0,0,0,0,0,0,0,0,0,0,0,0,0,0,0,0,0,0,0,0,0,0,0,0,0,0,0,
0,0,0,0,0,0,0,0,0,0,0,0,0,0,0,0,0,0,0,0,0,0,0,0,0,0,0,0,0,0,0,0,0,0,0,0,0,0,0,0,0,0,0,0,0,0,0,0,0,0,
0,0,0,0,0,0,0,0,0,0,0,0,0,0,0,0,0,0,0,0,0,0,0,0,0,0,0,0,0,0,0,0,0,0,0,0,0,0,0,0,0,0,0,0,0,0,0,0,0,0,
0,0,0,0,0,0,0,0,0,0,0,0,0,0,1457,1458,1459,1460,0,0,0,0,0,0,0,0,0,0,0,0,0,0,0,0,0,0,0,0,0,0,0,0,0,0,0,0,0,0,0,0,
0,0,0,0,0,0,0,0,0,0,0,0,0,0,1494,1495,1496,1497,0,0,0,0,0,0,0,0,0,0,0,0,0,1594,1595,1596,1597,1598,0,0,0,0,0,0,0,0,0,0,0,0,0,0,
0,0,0,0,0,0,0,0,0,0,0,0,0,0,0,0,0,1483,1484,1485,0,0,0,0,0,0,0,0,0,0,0,1631,1632,1633,1634,1635,0,0,0,0,0,0,0,0,0,0,0,0,0,0,
0,0,0,0,0,0,0,0,0,0,0,0,0,0,0,0,0,1520,1521,1522,0,0,0,0,0,0,0,0,0,0,0,0,0,0,0,0,0,0,0,0,0,0,0,0,0,0,0,0,0,0,
0,0,0,0,0,0,0,0,0,0,0,0,0,0,0,0,0,0,0,0,0,0,0,0,0,0,0,0,0,0,0,0,0,0,0,0,0,0,0,0,0,0,0,0,0,0,0,0,0,0,
0,0,0,0,0,0,0,0,0,0,0,0,0,0,0,0,0,0,0,0,0,0,0,0,0,0,0,0,0,0,0,0,0,0,0,0,0,0,0,0,0,0,0,0,0,0,0,0,0,0,
0,0,0,0,0,0,0,0,0,0,0,0,0,0,0,0,0,0,0,0,0,0,0,0,0,0,0,0,0,0,1457,1458,1459,1460,0,0,0,0,0,0,0,0,0,0,0,0,0,0,0,0,
0,0,0,0,0,0,0,0,0,0,0,0,0,0,0,0,0,0,0,0,0,0,0,0,0,0,0,0,0,0,1494,1495,1496,1497,0,0,0,0,0,0,0,0,0,0,0,0,0,0,0,0,
0,0,0,0,0,0,0,0,0,0,0,0,0,0,1598,1599,1600,1601,1602,1603,1604,1605,0,0,0,0,0,1639,1640,1641,1642,1643,0,0,0,0,0,0,0,0,0,0,0,0,0,0,0,0,0,0,
0,0,0,0,0,0,0,0,0,0,0,0,0,0,1635,1636,1637,1638,1639,1640,1641,1642,0,0,0,0,0,1676,1677,1678,1679,1680,0,0,0,0,0,0,0,0,0,0,0,0,0,0,0,0,0,0,
0,0,0,0,0,0,0,0,0,0,0,0,0,0,1672,1673,1674,1675,1676,1677,1678,1679,0,0,0,0,0,0,0,0,0,0,1483,1484,1485,1486,0,0,0,0,0,0,0,0,0,0,0,0,0,0,
0,0,0,0,0,0,0,0,0,0,0,0,0,0,0,0,0,0,0,0,0,0,0,0,0,0,0,0,0,0,0,0,1520,1521,1522,1523,0,0,0,0,0,0,0,0,0,0,0,0,0,0,
0,0,0,0,0,0,0,0,0,0,0,0,0,0,0,0,0,0,0,0,0,0,0,0,0,0,0,0,0,0,0,0,0,0,0,0,0,0,0,0,0,0,0,0,0,0,0,0,0,0,
0,0,0,0,0,0,0,0,0,0,0,0,0,0,0,0,0,0,0,0,0,0,0,0,0,0,0,0,0,0,0,0,0,0,0,0,0,0,0,0,0,0,0,0,0,0,0,0,0,0,
0,0,0,0,0,0,0,0,0,0,0,0,0,0,0,0,0,0,0,0,0,0,0,0,0,0,0,0,0,0,0,0,0,0,0,0,0,0,0,0,0,0,0,0,0,0,0,0,0,0,
0,0,0,0,0,0,0,0,0,0,0,0,0,0,0,0,1483,1484,1485,1486,0,0,0,0,0,0,0,0,0,0,0,0,0,0,0,0,0,0,0,0,0,0,0,0,0,0,0,0,0,0,
0,0,0,0,0,0,0,0,0,0,0,0,0,0,1456,1457,1458,1459,1460,1523,0,0,0,0,0,0,0,0,0,0,0,0,0,0,0,0,0,0,0,0,0,0,0,0,0,0,0,0,0,0,
0,0,0,0,0,0,0,0,0,0,0,0,0,0,1493,1494,1495,1496,1497,0,0,0,0,0,0,0,0,0,0,0,0,0,0,0,0,0,0,0,0,0,0,0,0,0,0,0,0,0,0,0,
0,0,0,0,0,0,0,0,0,0,0,0,0,0,0,0,0,0,0,0,0,0,0,0,0,0,0,0,0,0,0,0,0,0,0,0,0,0,0,0,0,0,0,0,0,0,0,0,0,0,
0,0,0,0,0,0,0,0,0,0,0,0,0,0,0,0,0,0,0,0,0,0,0,0,0,0,0,0,0,0,1640,1641,1642,1643,1597,1598,0,0,0,0,0,0,0,0,0,0,0,0,0,0,
0,0,0,0,0,0,0,0,0,0,0,0,0,0,0,0,0,0,0,0,0,0,0,0,0,0,0,0,0,0,0,1631,1632,1633,1634,1635,0,0,0,0,0,0,0,0,0,0,0,0,0,0,
0,0,0,0,0,0,0,0,0,0,0,0,0,0,0,0,0,1446,1447,1448,1449,1450,1451,0,0,0,0,0,0,0,0,0,0,0,0,0,0,0,0,0,0,0,0,0,0,0,0,0,0,0,
0,0,0,0,0,0,0,0,0,0,0,0,0,0,0,0,0,1483,1484,1485,1486,1487,1488,0,0,0,0,1601,1602,1603,1604,1605,0,0,0,0,0,0,0,0,0,0,0,0,0,0,0,0,0,0,
0,0,0,0,0,0,0,0,0,0,0,0,0,0,0,0,0,1520,1521,1522,1523,1524,1525,0,0,0,0,1638,1639,1640,1641,1642,0,0,0,0,0,0,0,0,0,0,0,0,0,0,0,0,0,0,
0,0,0,0,0,0,0,0,0,0,0,0,0,0,0,0,0,0,0,0,0,0,0,0,0,0,0,1675,1676,1677,1678,1679,0,0,0,0,0,0,0,0,0,0,0,0,0,0,0,0,0,0,
0,0,0,0,0,0,0,0,0,0,0,0,0,0,0,0,0,0,0,0,0,0,0,0,0,0,0,0,0,0,0,0,0,0,0,0,0,0,0,0,0,0,0,0,0,0,0,0,0,0,
0,0,0,0,0,0,0,0,0,0,0,0,0,0,0,0,0,0,0,0,0,0,0,0,0,0,0,0,0,0,1449,1450,1451,1452,1453,1454,0,0,0,0,0,0,0,0,0,0,0,0,0,0,
0,0,0,0,0,0,0,0,0,0,0,0,0,0,0,0,0,0,0,0,0,0,0,0,0,0,0,0,0,0,1486,1487,1488,1489,1490,1491,0,0,0,0,0,0,0,0,0,0,0,0,0,0,
0,0,0,0,0,0,0,0,0,0,0,0,0,0,0,0,0,0,0,0,0,0,0,0,0,0,0,0,0,0,1523,1524,1525,1526,1527,1528,0,0,0,0,0,0,0,0,0,0,0,0,0,0,
0,0,0,0,0,0,0,0,0,0,0,0,0,0,0,0,0,0,0,0,0,0,0,0,0,0,0,0,0,0,0,0,0,0,0,0,0,0,0,0,0,0,0,0,0,0,0,0,0,0,
0,0,0,0,0,0,0,0,0,0,0,0,0,0,0,0,0,0,0,0,0,0,0,0,0,0,0,0,0,0,0,0,0,0,0,0,0,0,0,0,0,0,0,0,0,0,0,0,0,0,
0,0,0,0,0,0,0,0,0,0,0,0,0,0,0,0,1483,1484,1485,0,0,0,0,0,0,0,0,0,0,0,0,0,0,0,0,0,0,0,0,0,0,0,0,0,0,0,0,0,0,0,
0,0,0,0,0,0,0,0,0,0,0,0,0,0,1640,1641,1642,1643,1522,0,0,0,0,0,0,0,0,0,0,0,0,0,0,0,0,0,0,0,0,0,0,0,0,0,0,0,0,0,0,0,
0,0,0,0,0,0,0,0,0,0,0,0,0,0,0,0,0,0,0,0,0,0,0,0,0,0,0,0,0,0,0,0,0,0,0,0,0,0,0,0,0,0,0,0,0,0,0,0,0,0,
0,0,0,0,0,0,0,0,0,0,0,0,0,0,0,0,0,0,0,0,0,0,0,0,0,0,0,0,0,0,0,0,0,0,0,0,0,0,0,0,0,0,0,0,0,0,0,0,0,0
</data>
  </layer>
  <layer id="2" name="Paredes" width="50" height="40">
   <data encoding="csv">
4330,4330,4330,4330,4330,4330,4330,4330,4330,4330,4330,4330,4330,4330,4330,4330,4330,4330,4330,4330,4330,4330,4330,4330,4330,4330,4330,4330,4330,4330,4330,4330,4330,4330,4330,4330,4330,4330,4330,4330,4330,4330,4330,4330,4330,4330,4330,4330,4330,4330,
4330,4316,4317,4317,4317,4317,4317,4317,4317,4317,4317,4317,4317,4317,4317,4317,4317,4317,4317,4317,4317,4317,4317,4317,4317,4317,4317,4317,4317,4317,4317,4317,4317,4317,4317,4317,4317,4317,4317,4317,4317,4317,4317,4317,4317,4317,4317,4317,4318,4330,
4330,4333,4334,4334,4334,4334,4334,4334,4334,4334,4334,4334,4334,4334,4334,4334,4334,4334,4334,4334,4334,4334,4334,4334,4334,4334,4334,4334,4334,4334,4334,4334,4334,4334,4334,4334,4334,4334,4334,4334,4334,4334,4334,4334,4334,4334,4334,4334,4335,4330,
4330,4333,4334,4334,4334,4334,4334,4334,4334,4334,4334,4334,4334,4334,4334,4334,4334,4334,4334,4334,4334,4334,4334,4334,4334,4334,4334,4334,4334,4334,4334,4334,4334,4334,4334,4334,4334,4334,4334,4334,4334,4334,4334,4334,4334,4334,4334,4334,4335,4330,
4330,4350,4351,4351,4351,4351,4351,4351,4351,4351,4351,4351,4351,4351,4351,4351,4351,4351,4351,4351,4351,4351,4351,4351,4351,4351,4351,4351,4351,4351,4381,4351,4351,4351,4351,4381,4351,4351,4351,4351,4351,4351,4351,4351,4351,4351,4351,4351,4352,4330,
4330,4331,0,0,0,0,0,0,0,0,0,0,0,0,633,573,573,573,573,635,0,0,0,0,0,0,0,0,0,0,633,573,573,573,573,635,0,0,0,0,0,0,0,0,0,0,0,0,4329,4330,
4330,4331,0,0,0,0,0,0,0,0,0,0,0,0,686,0,0,0,0,684,0,0,0,0,0,0,0,0,0,0,686,0,0,0,0,684,0,0,0,0,0,0,0,0,0,0,0,0,4329,4330,
4330,4331,0,0,0,0,0,0,0,0,0,0,0,0,686,0,0,0,0,684,0,0,0,0,0,0,0,0,0,0,686,0,0,0,0,684,0,0,0,0,0,0,0,0,0,0,0,0,4329,4330,
4330,4331,0,0,0,0,0,0,0,0,0,0,0,0,686,0,0,0,0,684,0,0,0,0,0,0,0,0,0,0,686,0,0,0,0,684,0,0,0,0,0,0,0,0,0,0,0,0,4329,4330,
4330,4331,0,0,0,0,0,0,0,0,0,0,0,0,686,0,0,0,0,684,0,0,0,0,0,0,0,0,0,0,686,0,0,0,0,684,0,0,0,0,0,0,0,0,0,0,0,0,4329,4330,
4330,4331,0,0,0,0,0,0,0,0,0,0,0,0,686,0,0,0,0,684,0,0,0,0,0,0,0,0,0,0,686,0,0,0,0,684,0,0,0,0,0,0,0,0,0,0,0,0,4329,4330,
4330,4331,0,0,0,0,0,0,0,0,0,0,0,0,686,0,0,0,0,713,714,714,632,0,0,0,0,630,714,714,715,0,0,0,0,684,0,0,0,0,0,0,0,0,0,0,0,0,4329,4330,
4330,4331,0,0,0,0,0,0,0,0,0,4312,4314,0,686,0,0,0,0,742,743,743,635,0,0,0,0,633,743,743,744,0,0,0,0,684,0,0,0,0,0,0,0,0,0,0,0,0,4329,4330,
4330,4331,0,0,0,0,0,0,0,0,0,4329,4331,0,686,0,0,0,0,0,0,0,684,0,0,0,0,686,0,0,0,0,0,0,0,684,0,0,4312,4314,0,0,0,4312,4314,0,0,0,4329,4330,
4330,4331,0,0,0,0,0,0,0,0,0,4346,4348,0,686,0,0,0,0,0,0,0,684,0,0,0,0,686,0,0,0,0,0,0,0,684,0,0,4346,4348,0,0,0,4346,4348,0,0,0,4329,4330,
4330,4331,0,0,0,0,0,0,0,0,0,4363,4365,0,686,0,0,0,0,0,0,0,684,0,0,0,0,686,0,0,0,0,0,0,0,684,0,0,4363,4365,0,0,0,4363,4365,0,0,0,4329,4330,
4330,4331,0,0,0,0,0,0,0,0,0,4363,4365,0,686,0,0,0,0,101,656,656,748,0,0,0,0,746,656,656,657,0,0,0,0,684,0,0,4363,4365,0,0,0,4363,4365,0,0,0,4329,4330,
4330,4331,0,0,0,0,0,0,0,0,0,4380,4382,0,686,0,0,0,0,684,0,0,0,0,0,0,0,0,0,0,686,0,0,0,0,684,0,0,4380,4382,0,0,0,4380,4382,0,0,0,4329,4330,
4330,4331,0,0,0,0,0,0,0,0,0,0,0,0,121,0,0,0,0,120,0,0,0,0,0,0,0,0,0,0,0,656,656,656,656,0,0,0,0,0,0,0,0,0,0,0,0,0,4329,4330,
4330,4331,0,0,0,0,0,0,0,0,0,0,0,0,121,0,0,0,0,684,0,0,0,0,0,0,0,0,0,0,0,0,0,0,0,0,0,0,0,0,0,0,0,0,0,0,0,0,4329,4330,
4330,4331,0,0,0,0,0,0,0,0,0,0,0,0,121,0,0,0,0,684,0,0,0,0,0,0,0,0,0,0,0,0,0,0,0,0,0,0,0,0,0,0,0,0,0,0,0,0,4329,4330,
4330,4331,0,0,0,0,0,0,0,0,0,0,0,0,121,0,0,0,0,120,0,0,0,0,0,0,0,0,0,0,0,0,0,0,0,0,0,0,0,0,0,0,0,0,0,0,0,0,4329,4330,
4330,4331,0,0,0,0,0,0,0,0,0,4312,4314,0,686,0,0,0,0,120,0,0,0,0,0,0,0,0,0,0,0,714,714,714,714,0,0,0,0,0,0,0,0,0,0,0,0,0,4329,4330,
4330,4331,0,0,0,0,0,0,0,0,0,4329,4331,0,686,0,0,0,0,120,0,0,0,0,0,0,0,0,0,0,633,743,743,743,743,635,4312,4313,4313,4313,4313,4313,4313,4313,4313,4313,4313,4313,4369,4330,
4330,4331,0,0,0,0,0,0,0,0,0,4346,4348,0,686,0,0,0,0,684,0,0,0,0,0,0,0,0,0,0,686,0,0,0,0,684,4329,4330,4330,4330,4330,4330,4330,4330,4330,4330,4330,4330,4330,4330,
4330,4331,0,0,0,0,0,0,0,0,0,4363,4365,0,686,0,0,0,0,139,714,714,632,0,0,0,0,630,714,714,715,0,0,0,0,684,4329,4330,4330,4330,4330,4330,4330,4330,4330,4330,4330,4330,4330,4330,
4330,4331,0,0,0,0,0,0,0,0,0,4363,4365,0,686,0,0,0,0,742,743,743,635,0,0,0,0,633,743,743,744,0,0,0,0,684,4329,4330,4330,4330,4330,4330,4330,4330,4330,4330,4330,4330,4330,4330,
4330,4331,0,0,0,0,0,0,0,0,0,4380,4382,0,686,0,0,0,0,0,0,0,684,0,0,0,0,686,0,0,0,0,0,0,0,684,4329,4330,4330,4330,4330,4330,4330,4330,4330,4330,4330,4330,4330,4330,
4330,4367,4314,0,0,0,0,0,0,0,0,0,0,0,686,0,0,0,0,0,0,0,684,0,0,0,0,686,0,0,0,0,0,0,0,684,4329,4330,4330,4330,4330,4330,4330,4330,4330,4330,4330,4330,4330,4330,
4330,4330,4367,4314,0,0,0,0,0,0,0,0,0,0,686,0,0,0,0,0,0,0,684,0,0,0,0,686,0,0,0,0,0,0,0,684,4329,4330,4330,4330,4330,4330,4330,4330,4330,4330,4330,4330,4330,4330,
4330,4330,4330,4367,4314,0,0,0,0,0,0,0,0,0,686,0,0,0,0,655,656,656,748,0,0,0,0,746,656,656,657,0,0,0,0,684,4329,4330,4330,4330,4330,4330,4330,4330,4330,4330,4330,4330,4330,4330,
4330,4330,4330,4330,4367,4314,0,0,0,0,0,0,0,0,746,656,656,656,656,748,0,0,0,0,0,0,0,0,0,0,686,0,0,0,0,684,4329,4330,4330,4330,4330,4330,4330,4330,4330,4330,4330,4330,4330,4330,
4330,4330,4330,4330,4330,4367,4314,0,0,0,0,0,0,0,0,0,0,0,0,0,0,0,0,0,0,0,0,0,0,0,686,0,0,0,0,684,4329,4330,4330,4330,4330,4330,4330,4330,4330,4330,4330,4330,4330,4330,
4330,4330,4330,4330,4330,4330,4367,4314,0,0,0,0,0,0,0,0,0,0,0,0,0,0,0,0,0,0,0,0,0,0,686,0,0,0,0,684,4329,4330,4330,4330,4330,4330,4330,4330,4330,4330,4330,4330,4330,4330,
4330,4330,4330,4330,4330,4330,4330,4367,4314,0,0,0,0,0,0,0,0,0,0,0,0,0,0,0,0,0,0,0,0,0,686,0,0,0,0,684,4329,4330,4330,4330,4330,4330,4330,4330,4330,4330,4330,4330,4330,4330,
4330,4330,4330,4330,4330,4330,4330,4330,4367,4314,0,0,0,0,630,714,714,714,714,632,0,0,0,0,0,0,0,0,0,0,686,0,0,0,0,684,4329,4330,4330,4330,4330,4330,4330,4330,4330,4330,4330,4330,4330,4330,
4330,4330,4330,4330,4330,4330,4330,4330,4330,4367,4314,0,0,0,633,743,743,743,743,635,0,0,0,0,0,0,0,0,0,0,686,0,0,0,0,684,4329,4330,4330,4330,4330,4330,4330,4330,4330,4330,4330,4330,4330,4330,
4330,4330,4330,4330,4330,4330,4330,4330,4330,4330,4367,4314,0,0,686,0,0,0,0,684,0,0,0,0,0,0,0,0,0,0,686,0,0,0,0,684,4329,4330,4330,4330,4330,4330,4330,4330,4330,4330,4330,4330,4330,4330,
4330,4330,4330,4330,4330,4330,4330,4330,4330,4330,4330,4367,4313,4313,4313,4313,4313,4313,4313,4313,4313,4313,4313,4313,4313,4313,4313,4313,4313,4313,4313,4313,4313,4313,4313,4313,4369,4330,4330,4330,4330,4330,4330,4330,4330,4330,4330,4330,4330,4330,
4330,4330,4330,4330,4330,4330,4330,4330,4330,4330,4330,4330,4330,4330,4330,4330,4330,4330,4330,4330,4330,4330,4330,4330,4330,4330,4330,4330,4330,4330,4330,4330,4330,4330,4330,4330,4330,4330,4330,4330,4330,4330,4330,4330,4330,4330,4330,4330,4330,4330
</data>
  </layer>
  <layer id="3" name="Puertas" width="50" height="40">
   <data encoding="csv">
0,0,0,0,0,0,0,0,0,0,0,0,0,0,0,0,0,0,0,0,0,0,0,0,0,0,0,0,0,0,0,0,0,0,0,0,0,0,0,0,0,0,0,0,0,0,0,0,0,0,
0,0,0,0,0,0,0,0,0,0,0,0,0,0,0,0,0,0,0,0,0,0,0,0,0,0,0,0,0,0,0,0,0,0,0,0,0,0,0,0,0,0,0,0,0,0,0,0,0,0,
0,0,0,0,0,0,0,0,0,0,0,0,0,0,0,0,0,0,0,0,0,0,0,0,0,0,0,0,0,0,0,0,0,0,0,0,0,0,0,0,0,0,0,0,0,0,0,0,0,0,
0,0,0,0,0,0,0,0,0,0,0,0,0,0,0,0,0,0,0,0,0,0,0,0,0,0,0,0,0,0,0,0,0,0,0,0,0,0,0,0,0,0,0,0,0,0,0,0,0,0,
0,0,0,0,0,0,0,0,0,0,0,0,0,0,0,0,0,0,0,0,0,0,0,0,1,0,0,0,0,0,0,0,0,0,0,0,0,0,0,0,0,0,0,0,0,0,0,0,0,0,
0,0,0,0,0,0,0,0,0,0,0,0,0,0,1366,0,0,0,0,0,0,0,0,0,0,0,0,0,0,0,0,0,0,0,0,0,0,0,0,0,0,0,0,0,0,0,0,0,0,0,
0,0,0,0,0,0,0,0,0,0,0,0,0,0,0,0,0,0,0,0,0,0,0,0,0,0,0,0,0,0,0,0,0,0,0,0,0,0,0,0,0,0,0,0,0,0,0,0,0,0,
0,0,0,0,0,0,0,0,0,0,0,0,0,0,0,0,0,0,0,0,0,0,0,0,0,0,0,0,0,0,0,0,0,0,0,0,0,0,0,0,0,0,0,0,0,0,0,0,0,0,
0,0,0,0,0,0,0,0,0,0,0,0,0,0,0,0,0,0,0,0,0,0,0,0,0,0,0,0,0,0,0,0,0,0,0,0,0,0,0,0,0,0,0,0,0,0,0,0,0,0,
0,0,0,0,0,0,0,0,0,0,0,0,0,0,0,0,0,0,0,0,0,0,0,0,0,0,0,0,0,0,0,0,0,0,0,0,0,0,0,0,0,0,0,0,0,0,0,0,0,0,
0,0,0,0,0,0,0,0,0,0,0,0,0,0,0,0,0,0,0,0,0,0,0,0,0,0,0,0,0,0,0,0,0,0,0,0,0,0,0,0,0,0,0,0,0,0,0,0,0,0,
0,0,0,0,0,0,0,0,0,0,0,0,0,0,0,0,0,0,0,0,0,0,0,0,0,0,0,0,0,0,0,0,0,0,0,0,0,0,0,0,0,0,0,0,0,0,0,0,0,0,
0,0,0,0,0,0,0,0,0,0,0,0,0,0,0,0,0,0,0,0,0,0,0,0,0,0,0,0,0,0,0,0,0,0,0,0,0,0,0,0,0,0,0,0,0,0,0,0,0,0,
0,0,0,0,0,0,0,0,0,0,0,0,0,0,0,0,0,0,0,0,0,0,0,0,0,0,0,0,0,0,0,0,0,0,0,0,0,0,0,0,0,0,0,0,0,0,0,0,0,0,
0,0,0,0,0,0,0,0,0,0,0,0,0,0,0,0,0,0,0,0,0,0,0,0,0,0,0,0,0,0,0,0,0,0,0,0,0,0,0,0,0,0,0,0,0,0,0,0,0,0,
0,0,0,0,0,0,0,0,0,0,0,0,0,0,0,0,0,0,0,0,0,0,0,0,0,0,0,0,0,0,0,0,0,0,0,0,0,0,0,0,0,0,0,0,0,0,0,0,0,0,
0,0,0,0,0,0,0,0,0,0,0,0,0,0,0,0,0,0,0,0,0,0,0,0,0,0,0,0,0,0,0,0,0,0,0,0,0,0,0,0,0,0,0,0,0,0,0,0,0,0,
0,0,0,0,0,0,0,0,0,0,0,0,0,0,0,0,0,0,0,0,0,0,0,0,0,0,0,0,0,0,0,0,0,0,0,0,0,0,0,0,0,0,0,0,0,0,0,0,0,0,
0,0,0,0,0,0,0,0,0,0,0,0,0,0,0,0,0,0,0,0,0,0,0,0,0,0,0,0,0,0,0,0,0,0,0,0,0,0,0,0,0,0,0,0,0,0,0,0,0,0,
3,0,0,0,0,0,0,0,0,0,0,0,0,0,0,0,0,0,0,0,0,0,0,0,0,0,0,0,0,0,0,0,0,0,0,0,0,0,0,0,0,0,0,0,0,0,0,0,0,0,
0,0,0,0,0,0,0,0,0,0,0,0,0,0,0,0,0,0,0,0,0,0,0,0,0,0,0,0,0,0,0,0,0,0,0,0,0,0,0,0,0,0,0,0,0,0,0,0,2,0,
0,0,0,0,0,0,0,0,0,0,0,0,0,0,0,0,0,0,0,0,0,0,0,0,0,0,0,0,0,0,0,0,0,0,0,0,0,0,0,0,0,0,0,0,0,0,0,0,0,0,
0,0,0,0,0,0,0,0,0,0,0,0,0,0,0,0,0,0,0,0,0,0,0,0,0,0,0,0,0,0,0,0,0,0,0,0,0,0,0,0,0,0,0,0,0,0,0,0,0,0,
0,0,0,0,0,0,0,0,0,0,0,0,0,0,0,0,0,0,0,0,0,0,0,0,0,0,0,0,0,0,0,0,0,0,0,0,0,0,0,0,0,0,0,0,0,0,0,0,0,0,
0,0,0,0,0,0,0,0,0,0,0,0,0,0,0,0,0,0,0,0,0,0,0,0,0,0,0,0,0,0,0,0,0,0,0,0,0,0,0,0,0,0,0,0,0,0,0,0,0,0,
0,0,0,0,0,0,0,0,0,0,0,0,0,0,0,0,0,0,0,0,0,0,0,0,0,0,0,0,0,0,0,0,0,0,0,0,0,0,0,0,0,0,0,0,0,0,0,0,0,0,
0,0,0,0,0,0,0,0,0,0,0,0,0,0,0,0,0,0,0,0,0,0,0,0,0,0,0,0,0,0,0,0,0,0,0,0,0,0,0,0,0,0,0,0,0,0,0,0,0,0,
0,0,0,0,0,0,0,0,0,0,0,0,0,0,0,0,0,0,0,0,0,0,0,0,0,0,0,0,0,0,0,0,0,0,0,0,0,0,0,0,0,0,0,0,0,0,0,0,0,0,
0,0,0,0,0,0,0,0,0,0,0,0,0,0,0,0,0,0,0,0,0,0,0,0,0,0,0,0,0,0,0,0,0,0,0,0,0,0,0,0,0,0,0,0,0,0,0,0,0,0,
0,0,0,0,0,0,0,0,0,0,0,0,0,0,0,0,0,0,0,0,0,0,0,0,0,0,0,0,0,0,0,0,0,0,0,0,0,0,0,0,0,0,0,0,0,0,0,0,0,0,
0,0,0,0,0,0,0,0,0,0,0,0,0,0,0,0,0,0,0,0,0,0,0,0,0,0,0,0,0,0,0,0,0,0,0,0,0,0,0,0,0,0,0,0,0,0,0,0,0,0,
0,0,0,0,0,0,0,0,0,0,0,0,0,0,0,0,0,0,0,0,0,0,0,0,0,0,0,0,0,0,0,0,0,0,0,0,0,0,0,0,0,0,0,0,0,0,0,0,0,0,
0,0,0,0,0,0,0,0,0,0,0,0,0,0,0,0,0,0,0,0,0,0,0,0,0,0,0,0,0,0,0,0,0,0,0,0,0,0,0,0,0,0,0,0,0,0,0,0,0,0,
0,0,0,0,0,0,0,0,0,0,0,0,0,0,0,0,0,0,0,0,0,0,0,0,0,0,0,0,0,0,0,0,0,0,0,0,0,0,0,0,0,0,0,0,0,0,0,0,0,0,
0,0,0,0,0,0,0,0,0,0,0,0,0,0,0,0,0,0,0,0,0,0,0,0,0,0,0,0,0,0,0,0,0,0,0,0,0,0,0,0,0,0,0,0,0,0,0,0,0,0,
0,0,0,0,0,0,0,0,0,0,0,0,0,0,0,0,0,0,0,0,0,0,0,0,0,0,0,0,0,0,0,0,0,0,0,0,0,0,0,0,0,0,0,0,0,0,0,0,0,0,
0,0,0,0,0,0,0,0,0,0,0,0,0,0,0,0,0,0,0,0,0,0,0,0,0,0,0,0,0,0,0,0,0,0,0,0,0,0,0,0,0,0,0,0,0,0,0,0,0,0,
0,0,0,0,0,0,0,0,0,0,0,0,0,0,0,0,0,0,0,0,0,0,0,0,0,0,0,0,0,0,0,0,0,0,0,0,0,0,0,0,0,0,0,0,0,0,0,0,0,0,
0,0,0,0,0,0,0,0,0,0,0,0,0,0,0,0,0,0,0,0,0,0,0,0,0,0,0,0,0,0,0,0,0,0,0,0,0,0,0,0,0,0,0,0,0,0,0,0,0,0,
0,0,0,0,0,0,0,0,0,0,0,0,0,0,0,0,0,0,0,0,0,0,0,0,4,0,0,0,0,0,0,0,0,0,0,0,0,0,0,0,0,0,0,0,0,0,0,0,0,0
</data>
  </layer>
  <layer id="12" name="Obstaculos" width="50" height="40">
   <data encoding="csv">
0,0,0,0,0,0,0,0,0,0,0,0,0,0,0,0,0,0,0,0,0,0,0,0,0,0,0,0,0,0,0,0,0,0,0,0,0,0,0,0,0,0,0,0,0,0,0,0,0,0,
0,0,0,5228,5229,0,0,0,0,0,0,0,5228,5229,0,0,0,0,0,0,0,0,0,0,0,0,0,0,0,0,0,0,0,0,0,0,0,0,0,0,0,0,0,0,0,0,0,0,0,0,
0,0,0,5251,5252,0,0,0,0,0,0,0,5251,5252,0,0,0,0,0,0,0,5309,5310,5311,0,0,5309,5310,5311,0,0,0,0,0,0,0,0,0,0,0,0,0,0,5569,5570,5571,0,0,0,0,
0,0,0,5274,5275,0,0,5161,5162,5163,0,0,5274,5275,0,0,0,0,0,0,0,5320,5321,5322,0,0,5320,5321,5322,0,0,0,0,0,0,0,0,0,0,0,5943,5944,0,5584,5585,5586,0,0,0,0,
0,0,0,0,0,0,0,5184,5185,5186,0,0,0,0,0,0,0,0,0,0,0,5331,5332,5333,0,0,5331,5332,5333,0,0,0,0,0,0,0,0,5866,5867,5868,5958,5959,0,5599,5600,5601,0,0,0,0,
0,0,0,0,5220,5221,0,5207,5208,5209,0,5220,5221,0,0,0,0,0,0,0,5224,5225,0,0,0,0,0,0,5224,5225,0,0,0,0,0,0,0,5881,5882,5883,5973,5974,0,5614,5615,5616,0,0,0,0,
0,0,0,0,5243,5244,0,5230,5231,5232,0,5243,5244,0,0,0,0,0,0,0,5247,5248,0,0,0,0,0,0,5247,5248,0,0,0,0,0,0,0,0,0,0,0,0,0,0,0,0,0,0,0,0,
0,0,0,0,5266,5267,0,0,0,0,0,5266,5267,0,0,0,0,0,0,0,5270,5271,0,0,0,0,0,0,5270,5271,0,0,0,0,0,0,0,0,0,0,0,0,0,0,0,0,0,0,0,0,
0,0,0,0,0,0,0,0,0,0,0,0,0,0,0,0,0,0,0,0,0,0,0,0,0,0,0,0,0,0,0,0,0,0,0,0,0,0,0,0,0,0,0,0,0,0,0,0,0,0,
0,0,0,0,0,0,0,0,0,0,0,0,0,0,0,0,0,0,0,0,0,0,0,0,0,0,0,0,4950,4951,0,0,0,0,0,0,0,0,0,0,0,0,0,0,0,0,0,0,0,0,
0,0,0,0,0,0,0,0,0,0,0,0,0,0,0,0,0,0,0,0,0,0,0,0,0,0,0,0,4974,4975,0,0,0,0,0,0,0,0,0,0,0,0,0,0,0,0,0,0,0,0,
0,0,0,0,0,0,0,0,0,0,0,0,0,0,0,0,0,0,0,0,0,0,0,0,0,0,0,0,4998,4999,0,0,0,0,0,0,0,0,0,0,0,0,0,0,0,0,0,0,0,0,
0,0,0,0,0,0,0,0,0,0,0,0,0,0,0,0,0,0,0,0,0,0,0,0,0,0,0,0,0,0,0,0,0,0,0,0,0,0,0,0,0,0,0,0,0,0,0,0,0,0,
0,0,0,0,0,0,0,0,0,0,0,0,0,5727,5728,0,0,0,0,0,0,0,0,0,0,0,0,0,0,0,0,0,0,0,0,0,0,0,0,0,0,0,0,0,0,0,0,0,0,0,
0,0,0,0,0,0,0,0,0,0,0,0,0,5742,5743,0,0,0,0,0,0,0,0,0,0,0,0,0,0,0,0,0,0,0,0,0,0,0,0,0,0,0,0,0,0,0,0,0,0,0,
0,0,0,0,0,0,0,0,0,0,0,5307,5308,5757,5758,0,0,0,0,0,0,0,0,0,0,0,0,0,5315,5316,5317,0,0,0,0,0,0,0,5307,5308,0,0,0,5307,5308,0,0,0,0,0,
0,0,0,0,0,0,0,0,0,0,0,5318,5319,5753,5754,0,0,0,0,0,0,0,0,0,0,0,0,0,5326,5327,5328,0,0,0,0,0,0,0,5318,5319,0,0,0,5318,5319,0,0,0,0,0,
0,0,0,0,0,0,0,0,0,0,0,5329,5330,5768,5769,0,0,0,0,0,5000,5001,0,0,0,0,0,0,5337,5338,5339,0,0,0,0,0,0,0,5329,5330,0,0,0,5329,5330,0,0,0,0,0,
0,0,0,0,0,0,0,0,0,0,0,0,0,0,0,0,0,0,0,0,5024,5025,0,0,0,0,0,0,0,0,0,0,0,0,0,0,0,0,0,0,0,0,0,0,0,0,0,0,0,0,
0,0,0,0,0,0,0,0,0,0,0,0,0,0,0,0,0,0,0,0,0,0,0,0,0,0,0,0,0,0,0,0,0,0,0,0,0,0,0,0,0,0,0,0,0,0,0,0,0,0,
0,0,0,0,0,0,0,0,0,0,0,0,0,0,0,0,0,0,0,0,5032,0,0,0,0,0,0,0,0,0,0,0,0,0,0,0,0,0,0,0,0,0,0,0,0,0,0,0,0,0,
0,0,0,0,0,0,0,0,0,0,0,0,0,0,0,0,0,0,0,0,5056,0,0,0,0,0,0,0,0,0,0,0,0,0,0,0,0,0,0,0,0,0,0,0,0,0,0,0,0,0,
0,0,0,0,0,0,0,0,0,0,0,0,0,5635,5636,0,0,0,0,0,5048,5049,0,0,0,0,0,0,4950,4951,0,0,0,0,0,0,0,0,0,0,0,0,0,0,0,0,0,0,0,0,
0,0,0,0,0,0,0,0,0,0,0,0,0,5650,5651,0,0,0,0,0,5072,5073,0,0,0,0,0,0,4974,4975,0,0,0,0,0,0,0,0,0,0,0,0,0,0,0,0,0,0,0,0,
0,0,0,0,0,0,0,0,0,0,0,0,0,5665,5666,0,0,0,0,0,5830,5831,0,0,0,0,0,0,4998,4999,0,0,0,0,0,0,0,0,0,0,0,0,0,0,0,0,0,0,0,0,
0,0,0,0,0,0,0,0,0,0,0,5307,5308,5722,0,0,0,0,0,0,5845,5846,0,0,0,0,0,0,0,0,0,0,0,0,0,0,0,0,0,0,0,0,0,0,0,0,0,0,0,0,
0,0,0,0,0,0,0,0,0,0,0,5318,5319,5737,5721,0,0,0,0,0,0,0,0,0,0,0,0,0,0,0,0,0,0,0,0,0,0,0,0,0,0,0,0,0,0,0,0,0,0,0,
0,0,0,0,0,0,0,0,0,0,0,5329,5330,0,5736,0,0,0,0,0,0,0,0,0,0,0,0,0,0,0,0,0,0,0,0,0,0,0,0,0,0,0,0,0,0,0,0,0,0,0,
0,0,0,0,0,0,0,0,0,0,0,0,0,0,0,0,0,0,0,0,0,0,0,0,0,0,0,0,0,0,0,0,0,0,0,0,0,0,0,0,0,0,0,0,0,0,0,0,0,0,
0,0,0,0,0,0,0,0,0,0,0,0,0,0,0,0,0,0,0,0,0,0,0,0,0,0,0,0,0,0,0,0,0,0,0,0,0,0,0,0,0,0,0,0,0,0,0,0,0,0,
0,0,0,0,0,0,0,0,0,0,0,0,0,0,0,0,0,0,0,0,0,0,0,0,0,0,0,0,0,0,0,0,0,0,0,0,0,0,0,0,0,0,0,0,0,0,0,0,0,0,
0,0,0,0,0,0,0,0,0,0,0,0,0,0,0,0,0,0,0,0,0,0,0,0,0,0,0,0,0,5034,0,0,0,0,0,0,0,0,0,0,0,0,0,0,0,0,0,0,0,0,
0,0,0,0,0,0,0,0,0,0,0,0,0,0,0,0,0,0,0,0,0,0,0,0,0,0,0,0,0,5058,0,0,0,0,0,0,0,0,0,0,0,0,0,0,0,0,0,0,0,0,
0,0,0,0,0,0,0,0,0,0,0,0,0,0,0,0,0,0,0,0,0,0,0,0,0,0,0,0,0,5035,5036,0,0,0,0,0,0,0,0,0,0,0,0,0,0,0,0,0,0,0,
0,0,0,0,0,0,0,0,0,0,0,0,0,0,0,0,0,0,0,0,0,0,0,0,0,0,0,0,0,5059,5060,0,0,0,0,0,0,0,0,0,0,0,0,0,0,0,0,0,0,0,
0,0,0,0,0,0,0,0,0,0,0,0,0,0,0,0,0,0,0,0,5312,5313,5314,0,0,0,0,5312,5313,5314,0,0,0,0,0,0,0,0,0,0,0,0,0,0,0,0,0,0,0,0,
0,0,0,0,0,0,0,0,0,0,0,0,0,0,0,0,0,0,0,0,5323,5324,5325,0,0,0,0,5323,5324,5325,0,0,0,0,0,0,0,0,0,0,0,0,0,0,0,0,0,0,0,0,
0,0,0,0,0,0,0,0,0,0,0,0,0,0,0,0,0,0,0,0,5334,5335,5336,0,0,0,0,5334,5335,5336,0,0,0,0,0,0,0,0,0,0,0,0,0,0,0,0,0,0,0,0,
0,0,0,0,0,0,0,0,0,0,0,0,0,0,0,0,0,0,0,0,0,0,0,0,0,0,0,0,0,0,0,0,0,0,0,0,0,0,0,0,0,0,0,0,0,0,0,0,0,0,
0,0,0,0,0,0,0,0,0,0,0,0,0,0,0,0,0,0,0,0,0,0,0,0,0,0,0,0,0,0,0,0,0,0,0,0,0,0,0,0,0,0,0,0,0,0,0,0,0,0
</data>
  </layer>
  <objectgroup id="10" name="Entities">
   <object id="7" gid="6061" x="591" y="168.333" width="30" height="30"/>
   <object id="8" gid="6061" x="120.333" y="161.667" width="30" height="30"/>
   <object id="9" gid="6062" x="421.333" y="178" width="16" height="16"/>
   <object id="10" gid="6062" x="367.333" y="282" width="16" height="16"/>
   <object id="11" gid="6062" x="447.333" y="344" width="16" height="16"/>
   <object id="12" gid="6062" x="376.667" y="390" width="16" height="16"/>
   <object id="13" gid="6062" x="412.667" y="493.333" width="16" height="16"/>
   <object id="14" gid="6062" x="174.667" y="564.667" width="16" height="16"/>
   <object id="15" gid="6062" x="164" y="326.667" width="16" height="16"/>
   <object id="16" gid="6062" x="55.3333" y="192" width="16" height="16"/>
   <object id="17" gid="6062" x="86" y="442" width="16" height="16"/>
   <object id="18" gid="6062" x="139.333" y="262.667" width="16" height="16"/>
   <object id="19" gid="6062" x="598.667" y="336.667" width="16" height="16"/>
   <object id="20" gid="6062" x="690" y="161.333" width="16" height="16"/>
   <object id="21" gid="6064" x="646" y="279.333" width="32" height="32"/>
   <object id="22" gid="6064" x="250" y="548" width="32" height="32"/>
   <object id="23" gid="6064" x="72" y="269.333" width="32" height="32"/>
   <object id="24" gid="6064" x="508" y="338.667" width="32" height="32"/>
   <object id="25" gid="6063" x="382.667" y="242.667" width="32" height="32"/>
  </objectgroup>
  <objectgroup id="9" name="Utils">
   <object id="26" gid="6065" x="99" y="121" width="18" height="18"/>
   <object id="27" gid="6065" x="154" y="122" width="18" height="18"/>
   <object id="28" gid="6065" x="723" y="116" width="18" height="18"/>
   <object id="29" gid="6065" x="626" y="118" width="18" height="18"/>
   <object id="30" gid="6065" x="199" y="329" width="18" height="18"/>
   <object id="32" gid="6066" x="651.333" y="187" width="21" height="21"/>
   <object id="33" gid="6066" x="395.333" y="335" width="21" height="21"/>
   <object id="34" gid="6065" x="172.333" y="526.333" width="18" height="18"/>
   <object id="35" gid="6065" x="392.333" y="463.667" width="18" height="18"/>
   <object id="36" gid="6065" x="392.333" y="198.333" width="18" height="18"/>
   <object id="37" gid="6065" x="647" y="322.333" width="18" height="18"/>
  </objectgroup>
  <objectgroup id="6" name="Player">
   <object id="1" gid="6060" x="364.833" y="594.334" width="64" height="64"/>
   <object id="3" gid="6060" x="694" y="361" width="64" height="64"/>
   <object id="4" gid="6060" x="366" y="158" width="64" height="64"/>
   <object id="5" gid="6060" x="46" y="364" width="64" height="64"/>
  </objectgroup>
 </group>
</map>
