<?xml version="1.0" encoding="UTF-8"?>
<map version="1.10" tiledversion="1.11.2" orientation="orthogonal" renderorder="right-down" width="30" height="20" tilewidth="16" tileheight="16" infinite="0" nextlayerid="17" nextobjectid="84">
 <tileset firstgid="1" source="tilesets/Paredes2.tsx"/>
 <tileset firstgid="494" source="tilesets/Paredes.tsx"/>
 <tileset firstgid="750" source="tilesets/Objetos.tsx"/>
 <tileset firstgid="966" source="tilesets/goomba.tsx"/>
 <tileset firstgid="978" source="tilesets/Suelo.tsx"/>
 <group id="16" name="Room">
  <layer id="7" name="Fondo" width="30" height="20">
   <data encoding="csv">
37,37,37,37,37,37,37,37,37,37,37,37,37,37,37,37,37,37,37,37,37,37,37,37,37,37,37,37,37,37,
37,37,37,37,37,37,37,37,37,37,37,37,37,37,37,37,37,37,37,37,37,37,37,37,37,37,37,37,37,37,
37,37,37,37,37,37,37,37,37,37,37,37,37,37,37,37,37,37,37,37,37,37,37,37,37,37,37,37,37,37,
37,37,37,37,37,37,37,37,37,37,37,37,37,37,37,37,37,37,37,37,37,37,37,37,37,37,37,37,37,37,
37,37,37,37,37,37,37,37,37,37,37,37,37,37,37,37,37,37,37,37,37,37,37,37,37,37,37,37,37,37,
37,37,37,37,37,37,37,37,37,37,37,37,37,37,37,37,37,37,37,37,37,37,37,37,37,37,37,37,37,37,
37,37,37,37,37,37,37,37,37,37,37,37,37,37,37,37,37,37,37,37,37,37,37,37,37,37,37,37,37,37,
37,37,37,37,37,37,37,37,37,37,37,37,37,37,37,37,37,37,37,37,37,37,37,37,37,37,37,37,37,37,
37,37,37,37,37,37,37,37,37,37,37,37,37,37,37,37,37,37,37,37,37,37,37,37,37,37,37,37,37,37,
37,37,37,37,37,37,37,37,37,37,37,37,37,37,37,37,37,37,37,37,37,37,37,37,37,37,37,37,37,37,
37,37,37,37,37,37,37,37,37,37,37,37,37,37,37,37,37,37,37,37,37,37,37,37,37,37,37,37,37,37,
37,37,37,37,37,37,37,37,37,37,37,37,37,37,37,37,37,37,37,37,37,37,37,37,37,37,37,37,37,37,
37,37,37,37,37,37,37,37,37,37,37,37,37,37,37,37,37,37,37,37,37,37,37,37,37,37,37,37,37,37,
37,37,37,37,37,37,37,37,37,37,37,37,37,37,37,37,37,37,37,37,37,37,37,37,37,37,37,37,37,37,
37,37,37,37,37,37,37,37,37,37,37,37,37,37,37,37,37,37,37,37,37,37,37,37,37,37,37,37,37,37,
37,37,37,37,37,37,37,37,37,37,37,37,37,37,37,37,37,37,37,37,37,37,37,37,37,37,37,37,37,37,
37,37,37,37,37,37,37,37,37,37,37,37,37,37,37,37,37,37,37,37,37,37,37,37,37,37,37,37,37,37,
37,37,37,37,37,37,37,37,37,37,37,37,37,37,37,37,37,37,37,37,37,37,37,37,37,37,37,37,37,37,
37,37,37,37,37,37,37,37,37,37,37,37,37,37,37,37,37,37,37,37,37,37,37,37,37,37,37,37,37,37,
37,37,37,37,37,37,37,37,37,37,37,37,37,37,37,37,37,37,37,37,37,37,37,37,37,37,37,37,37,37
</data>
  </layer>
  <layer id="8" name="Suelo" width="30" height="20">
   <data encoding="csv">
0,0,0,0,0,0,0,0,0,0,0,0,0,0,0,0,0,0,0,0,0,0,0,0,0,0,0,0,0,0,
0,0,0,0,0,0,0,0,0,0,0,0,0,0,0,0,0,0,0,0,0,0,0,0,0,0,0,0,0,0,
0,0,121,979,979,979,979,979,979,979,979,979,979,979,979,979,979,979,979,979,979,979,979,979,979,979,979,123,0,0,
0,0,989,139,139,139,139,139,139,139,139,139,139,139,139,139,139,139,139,139,139,139,139,139,139,139,139,990,0,0,
0,0,989,139,139,139,139,139,139,139,139,139,139,139,139,139,139,139,139,139,139,139,139,139,139,139,139,990,0,0,
0,0,989,139,139,139,139,139,139,139,139,139,139,139,139,139,139,139,139,139,139,139,139,139,139,139,139,990,0,0,
0,0,989,139,139,139,139,139,139,139,139,139,139,139,139,139,139,139,139,139,139,139,139,139,139,139,139,990,0,0,
0,0,989,139,139,139,139,139,139,139,139,139,139,139,139,139,139,139,139,139,139,139,139,139,139,139,139,990,0,0,
0,0,989,139,139,139,139,139,139,139,139,139,139,139,139,139,139,139,139,139,139,139,139,139,139,139,139,990,0,0,
0,0,989,139,139,139,139,139,139,139,139,139,139,139,139,139,139,139,139,139,139,139,139,139,139,139,139,990,0,0,
0,0,989,139,139,139,139,139,139,139,139,139,139,139,139,139,139,139,139,139,139,139,139,139,139,139,139,990,0,0,
0,0,989,139,139,139,139,139,139,139,139,139,139,139,139,139,139,139,139,139,139,139,139,139,139,139,139,990,0,0,
0,0,989,139,139,139,139,139,139,139,139,139,139,139,139,139,139,139,139,139,139,139,139,139,139,139,139,990,0,0,
0,0,989,139,139,139,139,139,139,139,139,139,139,139,139,139,139,139,139,139,139,139,139,139,139,139,139,990,0,0,
0,0,989,139,139,139,139,139,139,139,139,139,139,139,139,139,139,139,139,139,139,139,139,139,139,139,139,990,0,0,
0,0,989,139,139,139,139,139,139,139,139,139,139,139,139,139,139,139,139,139,139,139,139,139,139,139,139,990,0,0,
0,0,989,139,139,139,139,139,139,139,139,139,139,139,139,139,139,139,139,139,139,139,139,139,139,139,139,990,0,0,
0,0,155,982,982,982,982,982,982,982,982,982,982,982,982,982,982,982,982,982,982,982,982,982,982,982,982,157,0,0,
0,0,0,0,0,0,0,0,0,0,0,0,0,0,0,0,0,0,0,0,0,0,0,0,0,0,0,0,0,0,
0,0,0,0,0,0,0,0,0,0,0,0,0,0,0,0,0,0,0,0,0,0,0,0,0,0,0,0,0,0
</data>
  </layer>
  <layer id="9" name="Paredes" width="30" height="20">
   <data encoding="csv">
0,0,0,0,0,0,0,0,0,0,0,0,0,0,0,0,0,0,0,0,0,0,0,0,0,0,0,0,0,0,
0,504,544,544,544,544,544,544,544,544,544,544,544,544,544,544,544,544,544,544,544,544,544,544,544,544,544,544,506,0,
0,512,0,0,0,0,0,0,0,0,0,0,0,0,0,0,0,0,0,577,0,0,0,0,0,0,0,0,514,0,
0,512,0,785,786,787,788,0,0,0,0,0,0,0,0,0,0,0,0,577,793,794,0,0,0,837,0,0,514,0,
0,512,787,788,810,811,812,0,0,0,0,0,0,0,0,0,0,0,0,577,817,818,0,0,0,861,0,0,514,0,
0,512,811,812,0,0,0,0,0,0,0,0,882,0,0,0,0,0,0,577,841,842,0,0,0,0,0,0,514,0,
0,512,0,0,0,0,0,0,0,0,0,0,906,0,0,0,0,0,0,577,0,0,0,0,0,0,0,0,514,0,
0,512,609,609,609,609,609,609,585,0,0,0,0,0,0,0,0,0,0,577,0,0,0,0,0,0,0,0,514,0,
0,512,495,495,495,495,495,495,593,0,0,0,0,0,0,0,0,0,0,577,0,0,0,0,0,0,0,0,514,0,
0,512,616,616,616,616,616,616,593,0,0,0,0,0,0,0,0,0,0,578,0,0,0,0,0,0,0,0,514,0,
0,512,625,625,625,625,625,625,601,0,0,0,0,0,0,0,0,0,0,0,0,0,0,0,0,0,0,0,514,0,
0,512,0,0,0,0,0,0,0,0,0,0,0,0,0,0,0,0,0,0,0,0,0,0,0,0,0,0,514,0,
0,512,0,0,0,0,0,0,0,0,0,0,0,0,0,0,0,0,0,258,0,0,0,0,0,0,0,0,514,0,
0,512,0,0,0,0,0,0,0,0,0,0,0,0,0,0,0,0,0,568,0,0,0,0,0,0,0,0,514,0,
0,512,0,878,879,0,0,0,0,0,0,0,0,0,0,0,0,0,0,577,0,0,0,881,0,0,0,0,514,0,
0,512,0,902,903,0,0,0,0,0,0,0,0,0,0,0,0,0,0,577,0,0,0,905,0,0,877,0,514,0,
0,512,0,0,0,0,0,0,0,0,838,0,0,0,0,0,0,0,0,577,0,0,0,0,0,0,901,0,514,0,
0,512,0,0,0,0,0,0,0,0,0,0,0,0,0,0,0,0,0,577,0,0,0,0,0,0,0,0,514,0,
0,519,547,547,547,547,547,547,547,547,547,547,547,547,547,547,547,547,547,547,547,547,547,547,547,547,547,547,522,0,
0,0,0,0,0,0,0,0,0,0,0,0,0,0,0,0,0,0,0,0,0,0,0,0,0,0,0,0,0,0
</data>
  </layer>
  <objectgroup id="13" name="Objects">
   <object id="74" gid="927" x="254.5" y="259" width="16" height="16"/>
   <object id="75" gid="807" x="368" y="96" width="16" height="16"/>
   <object id="76" gid="783" x="368" y="80" width="16" height="16"/>
   <object id="77" gid="784" x="384" y="80" width="16" height="16"/>
   <object id="78" gid="808" x="384" y="96" width="16" height="16">
    <properties>
     <property name="interactivo" type="bool" value="true"/>
    </properties>
   </object>
  </objectgroup>
  <objectgroup id="14" name="Entities">
   <object id="79" gid="966" x="97.3333" y="222.667" width="20" height="20"/>
   <object id="80" gid="966" x="145.333" y="106" width="20" height="20"/>
   <object id="81" gid="966" x="332" y="245" width="20" height="20"/>
   <object id="82" gid="966" x="370" y="117" width="20" height="20"/>
   <object id="83" gid="966" x="264" y="89" width="20" height="20"/>
  </objectgroup>
 </group>
</map>
