<?xml version="1.0" encoding="UTF-8"?>
<map version="1.10" tiledversion="1.11.2" orientation="orthogonal" renderorder="right-down" width="30" height="20" tilewidth="16" tileheight="16" infinite="0" nextlayerid="7" nextobjectid="74">
 <tileset firstgid="1" source="tilesets/Paredes2.tsx"/>
 <tileset firstgid="494" source="tilesets/Paredes.tsx"/>
 <tileset firstgid="750" source="tilesets/Objetos.tsx"/>
 <tileset firstgid="966" source="tilesets/goomba.tsx"/>
 <layer id="1" name="Fondo" width="30" height="20">
  <data encoding="csv">
251,251,251,251,251,251,251,251,251,251,251,251,251,251,251,251,251,251,251,251,251,251,251,251,251,251,251,251,251,251,
251,251,251,251,251,251,251,251,251,251,251,251,251,251,251,251,251,251,251,251,251,251,251,251,251,251,251,251,251,251,
251,251,251,251,251,251,251,251,251,251,251,251,251,251,251,251,251,251,251,251,251,251,251,251,251,251,251,251,251,251,
251,251,251,251,251,251,251,251,251,251,251,251,251,251,251,251,251,251,251,251,251,251,251,251,251,251,251,251,251,251,
251,251,251,251,251,251,251,251,251,251,251,251,251,251,251,251,251,251,251,251,251,251,251,251,251,251,251,251,251,251,
251,251,251,251,251,251,251,251,251,251,251,251,251,251,251,251,251,251,251,251,251,251,251,251,251,251,251,251,251,251,
251,251,251,251,251,251,251,251,251,251,251,251,251,251,251,251,251,251,251,251,251,251,251,251,251,251,251,251,251,251,
251,251,251,251,251,251,251,251,251,251,251,251,251,251,251,251,251,251,251,251,251,251,251,251,251,251,251,251,251,251,
251,251,251,251,251,251,251,251,251,251,251,251,251,251,251,251,251,251,251,251,251,251,251,251,251,251,251,251,251,251,
251,251,251,251,251,251,251,251,251,251,251,251,251,251,251,251,251,251,251,251,251,251,251,251,251,251,251,251,251,251,
251,251,251,251,251,251,251,251,251,251,251,251,251,251,251,251,251,251,251,251,251,251,251,251,251,251,251,251,251,251,
251,251,251,251,251,251,251,251,251,251,251,251,251,251,251,251,251,251,251,251,251,251,251,251,251,251,251,251,251,251,
251,251,251,251,251,251,251,251,251,251,251,251,251,251,251,251,251,251,251,251,251,251,251,251,251,251,251,251,251,251,
251,251,251,251,251,251,251,251,251,251,251,251,251,251,251,251,251,251,251,251,251,251,251,251,251,251,251,251,251,251,
251,251,251,251,251,251,251,251,251,251,251,251,251,251,251,251,251,251,251,251,251,251,251,251,251,251,251,251,251,251,
251,251,251,251,251,251,251,251,251,251,251,251,251,251,251,251,251,251,251,251,251,251,251,251,251,251,251,251,251,251,
251,251,251,251,251,251,251,251,251,251,251,251,251,251,251,251,251,251,251,251,251,251,251,251,251,251,251,251,251,251,
251,251,251,251,251,251,251,251,251,251,251,251,251,251,251,251,251,251,251,251,251,251,251,251,251,251,251,251,251,251,
251,251,251,251,251,251,251,251,251,251,251,251,251,251,251,251,251,251,251,251,251,251,251,251,251,251,251,251,251,251,
251,251,251,251,251,251,251,251,251,251,251,251,251,251,251,251,251,251,251,251,251,251,251,251,251,251,251,251,251,251
</data>
 </layer>
 <layer id="2" name="Suelo" width="30" height="20">
  <data encoding="csv">
0,0,0,0,0,0,0,0,0,0,0,0,0,0,0,0,0,0,0,0,0,0,0,0,0,0,0,0,0,0,
0,0,0,0,0,0,0,0,0,0,0,0,0,0,0,0,0,0,0,0,0,0,0,0,0,0,0,0,0,0,
0,0,139,139,139,139,139,139,139,139,139,139,139,139,139,139,139,139,139,139,139,139,139,139,139,139,139,139,0,0,
0,0,139,139,139,139,139,139,139,139,139,139,139,139,139,139,139,139,139,139,139,139,139,139,139,139,139,139,0,0,
0,0,139,139,139,139,139,139,139,139,139,139,139,139,139,139,139,139,139,139,139,139,139,139,139,139,139,139,0,0,
0,0,139,139,139,139,139,139,139,139,139,139,139,139,139,139,139,139,139,139,139,139,139,139,139,139,139,139,0,0,
0,0,139,139,139,139,139,139,139,139,139,139,139,139,139,139,139,139,139,139,139,139,139,139,139,139,139,139,0,0,
0,0,139,139,139,139,139,139,139,139,139,139,139,139,139,139,139,139,139,139,139,139,139,139,139,139,139,139,0,0,
0,0,139,139,139,139,139,139,139,139,139,139,139,139,139,139,139,139,139,139,139,139,139,139,139,139,139,139,0,0,
0,0,139,139,139,139,139,139,139,139,139,139,139,139,139,139,139,139,139,139,139,139,139,139,139,139,139,139,0,0,
0,0,139,139,139,139,139,139,139,139,139,139,139,139,139,139,139,139,139,139,139,139,139,139,139,139,139,139,0,0,
0,0,139,139,139,139,139,139,139,139,139,139,139,139,139,139,139,139,139,139,139,139,139,139,139,139,139,139,0,0,
0,0,139,139,139,139,139,139,139,139,139,139,139,139,139,139,139,139,139,139,139,139,139,139,139,139,139,139,0,0,
0,0,139,139,139,139,139,139,139,139,139,139,139,139,139,139,139,139,139,139,139,139,139,139,139,139,139,139,0,0,
0,0,139,139,139,139,139,139,139,139,139,139,139,139,139,139,139,139,139,139,139,139,139,139,139,139,139,139,0,0,
0,0,139,139,139,139,139,139,139,139,139,139,139,139,139,139,139,139,139,139,139,139,139,139,139,139,139,139,0,0,
0,0,139,139,139,139,139,139,139,139,139,139,139,139,139,139,139,139,139,139,139,139,139,139,139,139,139,139,0,0,
0,0,139,139,139,139,139,139,139,139,139,139,139,139,139,139,139,139,139,139,139,139,139,139,139,139,139,139,0,0,
0,0,0,0,0,0,0,0,0,0,0,0,0,0,0,0,0,0,0,0,0,0,0,0,0,0,0,0,0,0,
0,0,0,0,0,0,0,0,0,0,0,0,0,0,0,0,0,0,0,0,0,0,0,0,0,0,0,0,0,0
</data>
 </layer>
 <layer id="3" name="Obstaculos" width="30" height="20">
  <data encoding="csv">
0,0,0,0,0,0,0,0,0,0,0,0,0,0,0,0,0,0,0,0,0,0,0,0,0,0,0,0,0,0,
0,0,0,0,0,0,0,0,0,0,0,0,0,0,0,0,0,0,0,0,0,0,0,0,0,0,0,0,0,0,
0,0,502,544,544,544,544,544,544,544,544,544,544,544,544,544,544,544,544,544,544,544,544,544,544,544,544,506,0,0,
0,0,510,497,546,546,546,546,546,546,546,546,546,546,546,546,546,546,546,546,546,546,546,546,546,546,497,516,0,0,
0,0,510,554,0,0,0,0,0,0,0,0,0,0,0,0,0,0,0,0,0,0,0,0,0,0,553,516,0,0,
0,0,510,554,0,0,0,0,0,0,0,0,0,0,0,0,0,0,0,0,0,0,0,0,0,0,553,516,0,0,
0,0,510,554,0,0,0,0,0,0,0,0,0,0,0,0,0,0,0,0,0,0,0,0,0,0,553,516,0,0,
0,0,510,554,0,0,0,0,0,0,0,0,0,0,0,0,0,0,0,0,0,0,0,0,0,0,553,516,0,0,
0,0,510,554,0,0,0,0,0,0,0,0,0,0,0,0,0,0,0,0,0,0,0,0,0,0,553,516,0,0,
0,0,510,554,0,0,0,0,0,0,0,0,0,0,0,0,0,0,0,0,0,0,0,0,0,0,553,516,0,0,
0,0,510,554,0,0,0,0,0,0,0,0,0,0,0,0,0,0,0,0,0,0,0,0,0,0,553,516,0,0,
0,0,510,554,0,0,0,0,0,0,0,0,0,0,0,0,0,0,0,0,0,0,0,0,0,0,553,516,0,0,
0,0,510,554,0,0,0,0,0,0,0,0,0,0,0,0,0,0,0,0,0,0,0,0,0,0,553,516,0,0,
0,0,510,554,0,0,0,0,0,0,0,0,0,0,0,0,0,0,0,0,0,0,0,0,0,0,553,516,0,0,
0,0,510,554,0,0,0,0,0,0,0,0,0,0,0,0,0,0,0,0,0,0,0,0,0,0,553,516,0,0,
0,0,510,554,0,0,0,0,0,0,0,0,0,0,0,0,0,0,0,0,0,0,0,0,0,0,553,516,0,0,
0,0,510,563,545,545,545,545,545,545,545,545,545,545,545,545,545,545,545,545,545,545,545,545,545,545,561,516,0,0,
0,0,518,547,547,547,547,547,547,547,547,547,547,547,547,547,547,547,547,547,547,547,547,547,547,547,547,525,0,0,
0,0,0,0,0,0,0,0,0,0,0,0,0,0,0,0,0,0,0,0,0,0,0,0,0,0,0,0,0,0,
0,0,0,0,0,0,0,0,0,0,0,0,0,0,0,0,0,0,0,0,0,0,0,0,0,0,0,0,0,0
</data>
 </layer>
 <objectgroup id="5" name="Colisiones">
  <object id="5" gid="615" x="64" y="160" width="16" height="16"/>
  <object id="6" gid="615" x="80" y="160" width="16" height="16"/>
  <object id="7" gid="615" x="96" y="160" width="16" height="16"/>
  <object id="8" gid="615" x="112" y="160" width="16" height="16"/>
  <object id="9" gid="609" x="112" y="144" width="16" height="16"/>
  <object id="10" gid="609" x="96" y="144" width="16" height="16"/>
  <object id="11" gid="609" x="80" y="144" width="16" height="16"/>
  <object id="12" gid="609" x="64" y="144" width="16" height="16"/>
  <object id="13" gid="585" x="128" y="144" width="16" height="16"/>
  <object id="14" gid="593" x="128" y="160" width="16" height="16"/>
  <object id="19" gid="625" x="64" y="176" width="16" height="16"/>
  <object id="20" gid="625" x="80" y="176" width="16" height="16"/>
  <object id="21" gid="625" x="96" y="176" width="16" height="16"/>
  <object id="22" gid="625" x="112" y="176" width="16" height="16"/>
  <object id="23" gid="601" x="128" y="176" width="16" height="16"/>
  <object id="24" gid="579" x="128" y="192" width="16" height="16"/>
  <object id="32" gid="577" x="272" y="80" width="16" height="16"/>
  <object id="36" gid="577" x="272" y="96" width="16" height="16"/>
  <object id="37" gid="577" x="272" y="112" width="16" height="16"/>
  <object id="38" gid="577" x="272" y="128" width="16" height="16"/>
  <object id="39" gid="577" x="272" y="144" width="16" height="16"/>
  <object id="40" gid="578" x="272" y="160" width="16" height="16"/>
  <object id="41" gid="577" x="272" y="256" width="16" height="16"/>
  <object id="42" gid="577" x="272" y="240" width="16" height="16"/>
  <object id="43" gid="577" x="272" y="224" width="16" height="16"/>
  <object id="44" gid="577" x="272" y="208" width="16" height="16"/>
  <object id="45" gid="258" x="272" y="192" width="16" height="16"/>
  <object id="54" gid="142" x="176" y="128" width="16" height="16"/>
  <object id="55" gid="159" x="176" y="144" width="16" height="16"/>
  <object id="56" gid="160" x="192" y="144" width="16" height="16"/>
  <object id="57" gid="161" x="208" y="144" width="16" height="16"/>
  <object id="60" gid="126" x="192" y="96" width="16" height="16"/>
  <object id="61" gid="142" x="176" y="112" width="16" height="16"/>
  <object id="62" gid="125" x="176" y="96" width="16" height="16"/>
  <object id="63" gid="127" x="208" y="96" width="16" height="16"/>
  <object id="66" gid="144" x="208" y="128" width="16" height="16"/>
  <object id="67" gid="144" x="208" y="112" width="16" height="16"/>
  <object id="68" gid="143" x="192" y="128" width="16" height="16"/>
  <object id="69" gid="497" x="192" y="112" width="16" height="16"/>
  <object id="70" gid="880" x="288" y="112" width="16" height="16"/>
  <object id="71" gid="904" x="288" y="128" width="16" height="16"/>
  <object id="72" gid="881" x="80" y="192" width="16" height="16"/>
  <object id="73" gid="905" x="80" y="208" width="16" height="16"/>
 </objectgroup>
 <objectgroup id="6" name="Interactivos">
  <object id="46" gid="783" x="80" y="96" width="16" height="16"/>
  <object id="47" gid="784" x="96" y="96" width="16" height="16"/>
  <object id="48" gid="807" x="80" y="112" width="16" height="16"/>
  <object id="49" gid="808" x="96" y="112" width="16" height="16"/>
 </objectgroup>
 <objectgroup id="4" name="Enemigos">
  <object id="50" gid="966" x="123" y="120" width="20" height="20"/>
  <object id="51" gid="966" x="369.333" y="109" width="20" height="20"/>
  <object id="52" gid="966" x="136.333" y="236.333" width="20" height="20"/>
  <object id="53" gid="966" x="365.667" y="236" width="20" height="20"/>
 </objectgroup>
</map>
